; generated by PrusaSlicer 2.3.0+win64 on 2021-05-16 at 21:05:50 UTC


;
;

;
;
; 

; external perimeters extrusion width = 0.45mm
; perimeters extrusion width = 0.45mm
; infill extrusion width = 0.45mm
; solid infill extrusion width = 0.45mm
; top infill extrusion width = 0.40mm
; support material extrusion width = 0.35mm
; first layer extrusion width = 0.42mm

M73 P0 R145
M201 X1250 Y1250 Z400 E5000 ; sets maximum accelerations, mm/sec^2
M203 X180 Y180 Z12 E80 ; sets maximum feedrates, mm/sec
M204 P1250 R1250 T1250 ; sets acceleration (P, T) and retract acceleration (R), mm/sec^2
M205 X8.00 Y8.00 Z2.00 E10.00 ; sets the jerk limits, mm/sec
M205 S0 T0 ; sets the minimum extruding and travel feed rate, mm/sec
M107
;TYPE:Custom
G90 ; use absolute coordinates
M83 ; extruder relative mode
M104 S170 ; set extruder temp for bed leveling
M140 S60 ; set bed temp
M109 R170 ; wait for bed leveling temp
M190 S60 ; wait for bed temp
G28 ; home all without mesh bed level
G29 ; mesh bed leveling 
M104 S215 ; set extruder temp
G92 E0.0
G1 Y-2.0 X179 F2400
G1 Z3 F720
M109 S215 ; wait for extruder temp

; intro line
G1 X170 F1000
G1 Z0.2 F720
G1 X110.0 E8.0 F900
G1 X40.0 E10.0 F700
G92 E0.0

M221 S95 ; set flow
G21 ; set units to millimeters
G90 ; use absolute coordinates
M83 ; use relative distances for extrusion
M900 K0.2 ; Filament gcode LA 1.5
; ; Filament gcode LA 1.0
;LAYER_CHANGE
;Z:0.2
;HEIGHT:0.2
;BEFORE_LAYER_CHANGE
G92 E0.0
;0.2


G1 E-3.20000 F4200.000
G1 Z0.200 F9000.000
;AFTER_LAYER_CHANGE
;0.2
G1 Z0.400
G1 X2.448 Y83.326
G1 Z0.200
G1 E3.20000 F2400.000
M204 S800
;TYPE:Skirt
;WIDTH:0.42
G1 F1200.000
G1 X5.118 Y76.067 E0.24250
G1 X5.422 Y75.612 E0.01716
G1 X5.822 Y75.239 E0.01716
G1 X6.297 Y74.967 E0.01716
G1 X6.818 Y74.812 E0.01704
G1 X46.290 Y73.768 E1.23806
G1 X133.559 Y73.768 E2.73625
G1 X172.856 Y74.777 E1.23253
G1 X173.560 Y74.911 E0.02249
G1 X174.190 Y75.247 E0.02237
G1 X174.652 Y75.703 E0.02036
G1 X174.974 Y76.267 E0.02036
G1 X177.463 Y82.999 E0.22505
G1 X177.597 Y83.746 E0.02378
G1 X177.573 Y96.868 E0.41142
G1 X177.450 Y97.358 E0.01585
G1 X174.986 Y103.855 E0.21787
G1 X174.673 Y104.424 E0.02036
G1 X174.314 Y104.807 E0.01645
G1 X173.884 Y105.100 E0.01633
G1 X173.397 Y105.294 E0.01645
G1 X172.882 Y105.376 E0.01633
G1 X133.706 Y106.383 E1.22876
G1 X46.425 Y106.376 E2.73661
G1 X7.129 Y105.364 E1.23253
G1 X6.534 Y105.261 E0.01894
G1 X5.983 Y105.012 E0.01894
G1 X5.514 Y104.632 E0.01894
G1 X5.155 Y104.146 E0.01894
G1 X2.439 Y96.948 E0.24120
G1 X2.448 Y83.386 E0.42525
M204 S1250
; printing object roof_top.stl id:0 copy 0
G1 E-2.24000 F4200.000
;WIPE_START
M73 P0 R144
G1 F7200.000
G1 X3.012 Y81.840 E-0.91200
;WIPE_END
G1 E-0.04800 F4200.000
G1 Z0.400 F9000.000
G1 X4.780 Y96.533
G1 Z0.200
G1 E3.20000 F2400.000
M204 S800
;TYPE:Support material
G1 F1200.000
G1 X4.780 Y83.788 E0.39964
G1 X5.534 Y83.788 E0.02365
G1 X5.534 Y96.364 E0.39432
G1 X6.288 Y96.364 E0.02365
G1 X6.288 Y83.788 E0.39432
G1 X7.043 Y83.788 E0.02365
G1 X7.043 Y96.364 E0.39432
G1 X7.797 Y96.364 E0.02365
G1 X7.797 Y83.788 E0.39432
G1 X8.551 Y83.788 E0.02365
G1 X8.551 Y96.364 E0.39432
G1 X9.305 Y96.364 E0.02365
G1 X9.305 Y83.788 E0.39432
G1 X10.059 Y83.788 E0.02365
G1 X10.059 Y96.364 E0.39432
G1 X10.813 Y96.364 E0.02365
G1 X10.813 Y83.788 E0.39432
G1 X11.567 Y83.788 E0.02365
G1 X11.567 Y96.364 E0.39432
G1 X12.322 Y96.364 E0.02365
G1 X12.322 Y83.788 E0.39432
G1 X13.076 Y83.788 E0.02365
G1 X13.076 Y96.533 E0.39964
M204 S1250
G1 E-2.24000 F4200.000
;WIPE_START
G1 F7200.000
G1 X13.076 Y94.888 E-0.91200
;WIPE_END
G1 E-0.04800 F4200.000
G1 Z0.400 F9000.000
G1 X166.924 Y96.533
G1 Z0.200
G1 E3.20000 F2400.000
M204 S800
G1 F1200.000
G1 X166.924 Y83.788 E0.39964
G1 X167.678 Y83.788 E0.02365
G1 X167.678 Y96.364 E0.39432
G1 X168.433 Y96.364 E0.02365
G1 X168.433 Y83.788 E0.39432
G1 X169.187 Y83.788 E0.02365
G1 X169.187 Y96.364 E0.39432
G1 X169.941 Y96.364 E0.02365
G1 X169.941 Y83.788 E0.39432
G1 X170.695 Y83.788 E0.02365
G1 X170.695 Y96.364 E0.39432
G1 X171.449 Y96.364 E0.02365
G1 X171.449 Y83.788 E0.39432
G1 X172.203 Y83.788 E0.02365
G1 X172.203 Y96.364 E0.39432
G1 X172.957 Y96.364 E0.02365
G1 X172.957 Y83.788 E0.39432
G1 X173.712 Y83.788 E0.02365
G1 X173.712 Y96.364 E0.39432
G1 X174.466 Y96.364 E0.02365
G1 X174.466 Y83.788 E0.39432
G1 X175.220 Y83.788 E0.02365
G1 X175.220 Y96.533 E0.39964
M204 S1250
G1 E-2.24000 F4200.000
;WIPE_START
G1 F7200.000
G1 X175.220 Y94.888 E-0.91200
;WIPE_END
G1 E-0.04800 F4200.000
G1 Z0.400 F9000.000
G1 X171.981 Y101.075
G1 Z0.200
G1 E3.20000 F2400.000
M204 S800
;TYPE:Perimeter
G1 F1200.000
G1 X171.980 Y102.215 E0.03574
G1 X132.903 Y102.212 E1.22524
G1 X132.903 Y103.219 E0.03158
G1 X47.232 Y103.212 E2.68617
G1 X47.232 Y102.205 E0.03158
G1 X8.019 Y102.202 E1.22949
G1 X8.019 Y101.062 E0.03573
G1 X171.921 Y101.075 E5.13902
M204 S1250
G1 E-2.24000 F4200.000
;WIPE_START
G1 F7200.000
G1 X171.980 Y102.215 E-0.63247
G1 X171.476 Y102.215 E-0.27953
;WIPE_END
G1 E-0.04800 F4200.000
G1 Z0.400 F9000.000
G1 X133.280 Y102.589
G1 Z0.200
G1 E3.20000 F2400.000
M204 S800
;TYPE:External perimeter
G1 F1200.000
G1 X133.280 Y103.596 E0.03158
G1 X46.855 Y103.589 E2.70981
G1 X46.855 Y102.582 E0.03158
G1 X7.642 Y102.579 E1.22949
G1 X7.642 Y100.685 E0.05938
G1 X172.358 Y100.698 E5.16455
M73 P1 R144
G1 X172.357 Y102.592 E0.05938
G1 X133.340 Y102.589 E1.22335
M204 S1250
G1 X132.880 Y102.595 F9000.000
G1 E-2.24000 F4200.000
;WIPE_START
G1 F7200.000
G1 X133.280 Y103.596 E-0.55918
G1 X132.644 Y103.596 E-0.35282
;WIPE_END
G1 E-0.04800 F4200.000
G1 Z0.400 F9000.000
G1 X171.867 Y101.952
G1 Z0.200
G1 E3.20000 F2400.000
M204 S800
;TYPE:Solid infill
;WIDTH:0.421064
G1 F1200.000
G1 X171.273 Y101.358 E0.02645
G1 X170.738 Y101.358 E0.01682
G1 X171.312 Y101.932 E0.02553
G1 X170.777 Y101.932 E0.01682
G1 X170.203 Y101.358 E0.02553
G1 X169.668 Y101.357 E0.01682
G1 X170.242 Y101.932 E0.02553
G1 X169.708 Y101.932 E0.01682
G1 X169.133 Y101.357 E0.02553
G1 X168.599 Y101.357 E0.01682
G1 X169.173 Y101.932 E0.02553
G1 X168.638 Y101.932 E0.01682
G1 X168.064 Y101.357 E0.02553
G1 X167.529 Y101.357 E0.01682
G1 X168.103 Y101.932 E0.02553
G1 X167.568 Y101.931 E0.01682
G1 X166.994 Y101.357 E0.02553
G1 X166.459 Y101.357 E0.01682
G1 X167.033 Y101.931 E0.02553
G1 X166.499 Y101.931 E0.01682
G1 X165.924 Y101.357 E0.02553
G1 X165.390 Y101.357 E0.01682
G1 X165.964 Y101.931 E0.02553
G1 X165.429 Y101.931 E0.01682
G1 X164.855 Y101.357 E0.02553
G1 X164.320 Y101.357 E0.01682
G1 X164.894 Y101.931 E0.02553
G1 X164.359 Y101.931 E0.01682
G1 X163.785 Y101.357 E0.02553
G1 X163.250 Y101.357 E0.01682
G1 X163.825 Y101.931 E0.02553
G1 X163.290 Y101.931 E0.01682
G1 X162.716 Y101.357 E0.02553
G1 X162.181 Y101.357 E0.01682
G1 X162.755 Y101.931 E0.02553
G1 X162.220 Y101.931 E0.01682
G1 X161.646 Y101.357 E0.02553
G1 X161.111 Y101.357 E0.01682
G1 X161.685 Y101.931 E0.02553
G1 X161.150 Y101.931 E0.01682
G1 X160.576 Y101.357 E0.02553
G1 X160.041 Y101.357 E0.01682
G1 X160.616 Y101.931 E0.02553
G1 X160.081 Y101.931 E0.01682
G1 X159.507 Y101.357 E0.02553
G1 X158.972 Y101.357 E0.01682
G1 X159.546 Y101.931 E0.02553
G1 X159.011 Y101.931 E0.01682
G1 X158.437 Y101.357 E0.02553
G1 X157.902 Y101.357 E0.01682
G1 X158.476 Y101.931 E0.02553
G1 X157.942 Y101.931 E0.01682
G1 X157.367 Y101.357 E0.02553
G1 X156.833 Y101.356 E0.01682
G1 X157.407 Y101.931 E0.02553
G1 X156.872 Y101.931 E0.01682
G1 X156.298 Y101.356 E0.02553
G1 X155.763 Y101.356 E0.01682
G1 X156.337 Y101.931 E0.02553
G1 X155.802 Y101.931 E0.01682
G1 X155.228 Y101.356 E0.02553
G1 X154.693 Y101.356 E0.01682
G1 X155.267 Y101.931 E0.02553
G1 X154.733 Y101.930 E0.01682
G1 X154.158 Y101.356 E0.02553
G1 X153.624 Y101.356 E0.01682
G1 X154.198 Y101.930 E0.02553
G1 X153.663 Y101.930 E0.01682
G1 X153.089 Y101.356 E0.02553
G1 X152.554 Y101.356 E0.01682
G1 X153.128 Y101.930 E0.02553
G1 X152.593 Y101.930 E0.01682
G1 X152.019 Y101.356 E0.02553
G1 X151.484 Y101.356 E0.01682
G1 X152.059 Y101.930 E0.02553
G1 X151.524 Y101.930 E0.01682
G1 X150.950 Y101.356 E0.02553
G1 X150.415 Y101.356 E0.01682
G1 X150.989 Y101.930 E0.02553
G1 X150.454 Y101.930 E0.01682
G1 X149.880 Y101.356 E0.02553
G1 X149.345 Y101.356 E0.01682
G1 X149.919 Y101.930 E0.02553
G1 X149.384 Y101.930 E0.01682
G1 X148.810 Y101.356 E0.02553
G1 X148.275 Y101.356 E0.01682
G1 X148.850 Y101.930 E0.02553
G1 X148.315 Y101.930 E0.01682
G1 X147.741 Y101.356 E0.02553
G1 X147.206 Y101.356 E0.01682
G1 X147.780 Y101.930 E0.02553
G1 X147.245 Y101.930 E0.01682
G1 X146.671 Y101.356 E0.02553
G1 X146.136 Y101.356 E0.01682
G1 X146.710 Y101.930 E0.02553
G1 X146.176 Y101.930 E0.01682
G1 X145.601 Y101.356 E0.02553
G1 X145.067 Y101.356 E0.01682
G1 X145.641 Y101.930 E0.02553
G1 X145.106 Y101.930 E0.01682
G1 X144.532 Y101.356 E0.02553
G1 X143.997 Y101.355 E0.01682
G1 X144.571 Y101.930 E0.02553
G1 X144.036 Y101.930 E0.01682
G1 X143.462 Y101.355 E0.02553
G1 X142.927 Y101.355 E0.01682
G1 X143.501 Y101.930 E0.02553
G1 X142.967 Y101.930 E0.01682
G1 X142.392 Y101.355 E0.02553
G1 X141.858 Y101.355 E0.01682
G1 X142.432 Y101.930 E0.02553
G1 X141.897 Y101.929 E0.01682
G1 X141.323 Y101.355 E0.02553
G1 X140.788 Y101.355 E0.01682
G1 X141.362 Y101.929 E0.02553
G1 X140.827 Y101.929 E0.01682
G1 X140.253 Y101.355 E0.02553
G1 X139.718 Y101.355 E0.01682
G1 X140.293 Y101.929 E0.02553
G1 X139.758 Y101.929 E0.01682
G1 X139.184 Y101.355 E0.02553
G1 X138.649 Y101.355 E0.01682
G1 X139.223 Y101.929 E0.02553
G1 X138.688 Y101.929 E0.01682
G1 X138.114 Y101.355 E0.02553
G1 X137.579 Y101.355 E0.01682
G1 X138.153 Y101.929 E0.02553
G1 X137.618 Y101.929 E0.01682
G1 X137.044 Y101.355 E0.02553
G1 X136.509 Y101.355 E0.01682
G1 X137.084 Y101.929 E0.02553
G1 X136.549 Y101.929 E0.01682
G1 X135.975 Y101.355 E0.02553
G1 X135.440 Y101.355 E0.01682
G1 X136.014 Y101.929 E0.02553
G1 X135.479 Y101.929 E0.01682
G1 X134.905 Y101.355 E0.02553
G1 X134.370 Y101.355 E0.01682
G1 X134.944 Y101.929 E0.02553
G1 X134.410 Y101.929 E0.01682
G1 X133.835 Y101.355 E0.02553
G1 X133.301 Y101.355 E0.01682
G1 X133.875 Y101.929 E0.02553
G1 X133.340 Y101.929 E0.01682
G1 X132.766 Y101.355 E0.02553
G1 X132.231 Y101.355 E0.01682
G1 X132.805 Y101.929 E0.02553
G1 X132.620 Y101.929 E0.00581
G1 X132.620 Y102.279 E0.01101
G1 X131.696 Y101.355 E0.04110
G1 X131.161 Y101.354 E0.01682
G1 X132.620 Y102.814 E0.06488
G1 X132.620 Y102.936 E0.00385
G1 X132.208 Y102.936 E0.01297
G1 X130.626 Y101.354 E0.07033
G1 X130.092 Y101.354 E0.01682
M73 P1 R143
G1 X131.673 Y102.936 E0.07033
G1 X131.138 Y102.936 E0.01682
G1 X129.557 Y101.354 E0.07033
G1 X129.022 Y101.354 E0.01682
G1 X130.604 Y102.936 E0.07033
G1 X130.069 Y102.936 E0.01682
G1 X128.487 Y101.354 E0.07033
G1 X127.952 Y101.354 E0.01682
G1 X129.534 Y102.936 E0.07033
G1 X128.999 Y102.936 E0.01682
G1 X127.418 Y101.354 E0.07033
G1 X126.883 Y101.354 E0.01682
G1 X128.464 Y102.936 E0.07033
G1 X127.929 Y102.936 E0.01682
G1 X126.348 Y101.354 E0.07033
G1 X125.813 Y101.354 E0.01682
G1 X127.395 Y102.936 E0.07033
G1 X126.860 Y102.936 E0.01682
G1 X125.278 Y101.354 E0.07033
G1 X124.743 Y101.354 E0.01682
G1 X126.325 Y102.936 E0.07033
G1 X125.790 Y102.935 E0.01682
G1 X124.209 Y101.354 E0.07033
G1 X123.674 Y101.354 E0.01682
G1 X125.255 Y102.935 E0.07033
G1 X124.721 Y102.935 E0.01682
G1 X123.139 Y101.354 E0.07033
G1 X122.604 Y101.354 E0.01682
G1 X124.186 Y102.935 E0.07033
G1 X123.651 Y102.935 E0.01682
G1 X122.069 Y101.354 E0.07033
G1 X121.535 Y101.354 E0.01682
G1 X123.116 Y102.935 E0.07033
G1 X122.581 Y102.935 E0.01682
G1 X121.000 Y101.354 E0.07033
G1 X120.465 Y101.354 E0.01682
G1 X122.046 Y102.935 E0.07033
G1 X121.512 Y102.935 E0.01682
G1 X119.930 Y101.354 E0.07033
G1 X119.395 Y101.354 E0.01682
G1 X120.977 Y102.935 E0.07033
G1 X120.442 Y102.935 E0.01682
G1 X118.860 Y101.354 E0.07033
G1 X118.326 Y101.353 E0.01682
G1 X119.907 Y102.935 E0.07033
G1 X119.372 Y102.935 E0.01682
G1 X117.791 Y101.353 E0.07033
G1 X117.256 Y101.353 E0.01682
G1 X118.838 Y102.935 E0.07033
G1 X118.303 Y102.935 E0.01682
G1 X116.721 Y101.353 E0.07033
G1 X116.186 Y101.353 E0.01682
G1 X117.768 Y102.935 E0.07033
G1 X117.233 Y102.935 E0.01682
G1 X115.652 Y101.353 E0.07033
G1 X115.117 Y101.353 E0.01682
G1 X116.698 Y102.935 E0.07033
G1 X116.163 Y102.935 E0.01682
G1 X114.582 Y101.353 E0.07033
G1 X114.047 Y101.353 E0.01682
G1 X115.629 Y102.935 E0.07033
G1 X115.094 Y102.935 E0.01682
G1 X113.512 Y101.353 E0.07033
G1 X112.977 Y101.353 E0.01682
G1 X114.559 Y102.935 E0.07033
G1 X114.024 Y102.935 E0.01682
G1 X112.443 Y101.353 E0.07033
G1 X111.908 Y101.353 E0.01682
G1 X113.489 Y102.935 E0.07033
G1 X112.955 Y102.934 E0.01682
G1 X111.373 Y101.353 E0.07033
G1 X110.838 Y101.353 E0.01682
G1 X112.420 Y102.934 E0.07033
G1 X111.885 Y102.934 E0.01682
G1 X110.303 Y101.353 E0.07033
G1 X109.769 Y101.353 E0.01682
G1 X111.350 Y102.934 E0.07033
G1 X110.815 Y102.934 E0.01682
G1 X109.234 Y101.353 E0.07033
G1 X108.699 Y101.353 E0.01682
G1 X110.280 Y102.934 E0.07033
G1 X109.746 Y102.934 E0.01682
G1 X108.164 Y101.353 E0.07033
G1 X107.629 Y101.353 E0.01682
G1 X109.211 Y102.934 E0.07033
G1 X108.676 Y102.934 E0.01682
G1 X107.094 Y101.353 E0.07033
G1 X106.560 Y101.353 E0.01682
G1 X108.141 Y102.934 E0.07033
G1 X107.606 Y102.934 E0.01682
G1 X106.025 Y101.353 E0.07033
G1 X105.490 Y101.353 E0.01682
G1 X107.072 Y102.934 E0.07033
G1 X106.537 Y102.934 E0.01682
G1 X104.955 Y101.352 E0.07033
G1 X104.420 Y101.352 E0.01682
G1 X106.002 Y102.934 E0.07033
G1 X105.467 Y102.934 E0.01682
G1 X103.886 Y101.352 E0.07033
G1 X103.351 Y101.352 E0.01682
G1 X104.932 Y102.934 E0.07033
G1 X104.397 Y102.934 E0.01682
G1 X102.816 Y101.352 E0.07033
G1 X102.281 Y101.352 E0.01682
G1 X103.863 Y102.934 E0.07033
G1 X103.328 Y102.934 E0.01682
G1 X101.746 Y101.352 E0.07033
G1 X101.212 Y101.352 E0.01682
G1 X102.793 Y102.934 E0.07033
G1 X102.258 Y102.934 E0.01682
G1 X100.677 Y101.352 E0.07033
G1 X100.142 Y101.352 E0.01682
G1 X101.723 Y102.934 E0.07033
G1 X101.189 Y102.934 E0.01682
G1 X99.607 Y101.352 E0.07033
G1 X99.072 Y101.352 E0.01682
G1 X100.654 Y102.934 E0.07033
G1 X100.119 Y102.933 E0.01682
G1 X98.537 Y101.352 E0.07033
G1 X98.003 Y101.352 E0.01682
G1 X99.584 Y102.933 E0.07033
G1 X99.049 Y102.933 E0.01682
G1 X97.468 Y101.352 E0.07033
G1 X96.933 Y101.352 E0.01682
G1 X98.514 Y102.933 E0.07033
G1 X97.980 Y102.933 E0.01682
G1 X96.398 Y101.352 E0.07033
G1 X95.863 Y101.352 E0.01682
G1 X97.445 Y102.933 E0.07033
G1 X96.910 Y102.933 E0.01682
G1 X95.329 Y101.352 E0.07033
G1 X94.794 Y101.352 E0.01682
G1 X96.375 Y102.933 E0.07033
G1 X95.840 Y102.933 E0.01682
G1 X94.259 Y101.352 E0.07033
G1 X93.724 Y101.352 E0.01682
G1 X95.306 Y102.933 E0.07033
G1 X94.771 Y102.933 E0.01682
G1 X93.189 Y101.352 E0.07033
G1 X92.654 Y101.352 E0.01682
G1 X94.236 Y102.933 E0.07033
G1 X93.701 Y102.933 E0.01682
G1 X92.120 Y101.351 E0.07033
G1 X91.585 Y101.351 E0.01682
G1 X93.166 Y102.933 E0.07033
G1 X92.631 Y102.933 E0.01682
G1 X91.050 Y101.351 E0.07033
G1 X90.515 Y101.351 E0.01682
G1 X92.097 Y102.933 E0.07033
G1 X91.562 Y102.933 E0.01682
G1 X89.980 Y101.351 E0.07033
G1 X89.446 Y101.351 E0.01682
G1 X91.027 Y102.933 E0.07033
G1 X90.492 Y102.933 E0.01682
G1 X88.911 Y101.351 E0.07033
G1 X88.376 Y101.351 E0.01682
G1 X89.957 Y102.933 E0.07033
G1 X89.423 Y102.933 E0.01682
G1 X87.841 Y101.351 E0.07033
G1 X87.306 Y101.351 E0.01682
G1 X88.888 Y102.933 E0.07033
G1 X88.353 Y102.933 E0.01682
G1 X86.771 Y101.351 E0.07033
G1 X86.237 Y101.351 E0.01682
G1 X87.818 Y102.933 E0.07033
G1 X87.283 Y102.933 E0.01682
G1 X85.702 Y101.351 E0.07033
G1 X85.167 Y101.351 E0.01682
G1 X86.749 Y102.932 E0.07033
G1 X86.214 Y102.932 E0.01682
G1 X84.632 Y101.351 E0.07033
G1 X84.097 Y101.351 E0.01682
