; generated by PrusaSlicer 2.3.0+win64 on 2021-05-11 at 00:08:19 UTC


;
;

;
;
; 

; external perimeters extrusion width = 0.45mm
; perimeters extrusion width = 0.45mm
; infill extrusion width = 0.45mm
; solid infill extrusion width = 0.45mm
; top infill extrusion width = 0.40mm
; support material extrusion width = 0.35mm
; first layer extrusion width = 0.42mm

M73 P0 R101
M201 X1250 Y1250 Z400 E5000 ; sets maximum accelerations, mm/sec^2
M203 X180 Y180 Z12 E80 ; sets maximum feedrates, mm/sec
M204 P1250 R1250 T1250 ; sets acceleration (P, T) and retract acceleration (R), mm/sec^2
M205 X8.00 Y8.00 Z2.00 E10.00 ; sets the jerk limits, mm/sec
M205 S0 T0 ; sets the minimum extruding and travel feed rate, mm/sec
M107
;TYPE:Custom
G90 ; use absolute coordinates
M83 ; extruder relative mode
M104 S170 ; set extruder temp for bed leveling
M140 S60 ; set bed temp
M109 R170 ; wait for bed leveling temp
M190 S60 ; wait for bed temp
G28 ; home all without mesh bed level
G29 ; mesh bed leveling 
M104 S215 ; set extruder temp
G92 E0.0
G1 Y-2.0 X179 F2400
G1 Z3 F720
M109 S215 ; wait for extruder temp

; intro line
G1 X170 F1000
G1 Z0.2 F720
G1 X110.0 E8.0 F900
G1 X40.0 E10.0 F700
G92 E0.0

M221 S95 ; set flow
G21 ; set units to millimeters
G90 ; use absolute coordinates
M83 ; use relative distances for extrusion
M900 K0.2 ; Filament gcode LA 1.5
; ; Filament gcode LA 1.0
;LAYER_CHANGE
;Z:0.2
;HEIGHT:0.2
;BEFORE_LAYER_CHANGE
G92 E0.0
;0.2


M73 P0 R100
G1 E-3.20000 F4200.000
G1 Z0.200 F9000.000
;AFTER_LAYER_CHANGE
;0.2
G1 Z0.400
G1 X50.049 Y51.198
G1 Z0.200
G1 E3.20000 F2400.000
M204 S800
;TYPE:Skirt
;WIDTH:0.42
G1 F1200.000
G1 X50.555 Y50.723 E0.02178
G1 X57.356 Y46.187 E0.25629
G1 X57.799 Y45.968 E0.01550
G1 X58.273 Y45.845 E0.01538
G1 X103.953 Y40.282 E1.44282
G1 X126.535 Y40.274 E0.70806
G1 X127.266 Y40.346 E0.02301
G1 X127.927 Y40.624 E0.02249
G1 X135.459 Y45.329 E0.27845
G1 X135.915 Y45.730 E0.01906
G1 X136.256 Y46.238 E0.01917
G1 X136.438 Y46.734 E0.01657
G1 X136.506 Y47.258 E0.01657
G1 X136.501 Y60.205 E0.40596
G1 X130.950 Y96.974 E1.16591
G1 X120.190 Y133.746 E1.20132
G1 X119.804 Y134.395 E0.02367
G1 X119.237 Y134.888 E0.02355
G1 X111.390 Y139.424 E0.28418
G1 X110.644 Y139.690 E0.02484
G1 X88.100 Y139.726 E0.70684
G1 X87.238 Y139.560 E0.02755
G1 X78.743 Y134.690 E0.30699
G1 X44.276 Y103.764 E1.45196
G1 X43.935 Y103.380 E0.01609
G1 X43.686 Y102.936 E0.01597
G1 X43.495 Y102.032 E0.02896
G1 X43.511 Y88.979 E0.40928
G1 X49.568 Y52.283 E1.16613
G1 X49.702 Y51.800 E0.01574
G1 X50.019 Y51.250 E0.01990
M204 S1250
; printing object cross_beam_top4.stl id:3 copy 0
G1 E-2.24000 F4200.000
;WIPE_START
G1 F7200.000
G1 X50.555 Y50.723 E-0.41684
G1 X51.299 Y50.227 E-0.49516
;WIPE_END
G1 E-0.04800 F4200.000
G1 Z0.400 F9000.000
G1 X52.659 Y102.002
G1 Z0.200
G1 E3.20000 F2400.000
M204 S800
;TYPE:Support material
G1 F1200.000
G1 X52.659 Y89.256 E0.39964
G1 X51.905 Y89.256 E0.02365
G1 X51.905 Y101.833 E0.39432
G1 X51.151 Y101.833 E0.02365
G1 X51.151 Y89.256 E0.39432
G1 X50.397 Y89.256 E0.02365
G1 X50.397 Y101.833 E0.39432
G1 X49.643 Y101.833 E0.02365
G1 X49.643 Y89.256 E0.39432
G1 X48.889 Y89.256 E0.02365
G1 X48.889 Y101.833 E0.39432
G1 X48.134 Y101.833 E0.02365
G1 X48.134 Y89.256 E0.39432
G1 X47.380 Y89.256 E0.02365
G1 X47.380 Y101.833 E0.39432
G1 X46.626 Y101.833 E0.02365
G1 X46.626 Y89.256 E0.39432
G1 X45.872 Y89.256 E0.02365
G1 X45.872 Y102.002 E0.39964
M204 S1250
G1 E-2.24000 F4200.000
;WIPE_START
G1 F7200.000
G1 X45.872 Y100.356 E-0.91200
;WIPE_END
G1 E-0.04800 F4200.000
G1 Z0.400 F9000.000
G1 X76.792 Y102.002
G1 Z0.200
G1 E3.20000 F2400.000
M204 S800
G1 F1200.000
G1 X76.792 Y89.256 E0.39964
G1 X77.547 Y89.256 E0.02365
G1 X77.547 Y101.833 E0.39432
G1 X78.301 Y101.833 E0.02365
G1 X78.301 Y89.256 E0.39432
G1 X79.055 Y89.256 E0.02365
G1 X79.055 Y101.833 E0.39432
G1 X79.809 Y101.833 E0.02365
G1 X79.809 Y89.256 E0.39432
G1 X80.563 Y89.256 E0.02365
G1 X80.563 Y101.833 E0.39432
G1 X81.317 Y101.833 E0.02365
G1 X81.317 Y89.256 E0.39432
G1 X82.072 Y89.256 E0.02365
G1 X82.072 Y101.833 E0.39432
G1 X82.826 Y101.833 E0.02365
G1 X82.826 Y89.256 E0.39432
G1 X83.580 Y89.256 E0.02365
G1 X83.580 Y102.002 E0.39964
M204 S1250
G1 E-2.24000 F4200.000
;WIPE_START
G1 F7200.000
G1 X83.580 Y100.356 E-0.91200
;WIPE_END
G1 E-0.04800 F4200.000
G1 Z0.400 F9000.000
G1 X75.095 Y105.694
G1 Z0.200
G1 E3.20000 F2400.000
M204 S800
;TYPE:Perimeter
G1 F1200.000
G1 X54.230 Y105.694 E0.65419
G1 X54.230 Y85.395 E0.63646
G1 X75.095 Y85.395 E0.65419
G1 X75.095 Y105.634 E0.63458
M204 S1250
G1 X75.472 Y106.071 F9000.000
M204 S800
;TYPE:External perimeter
G1 F1200.000
G1 X53.853 Y106.071 E0.67783
G1 X53.853 Y85.018 E0.66011
G1 X75.472 Y85.018 E0.67783
G1 X75.472 Y106.011 E0.65823
M204 S1250
G1 X75.085 Y105.969 F9000.000
G1 E-2.24000 F4200.000
;WIPE_START
G1 F7200.000
G1 X73.826 Y106.016 E-0.91200
;WIPE_END
G1 E-0.04800 F4200.000
G1 Z0.400 F9000.000
G1 X74.214 Y85.508
G1 Z0.200
G1 E3.20000 F2400.000
M204 S800
;TYPE:Solid infill
;WIDTH:0.422398
G1 F1200.000
G1 X74.812 Y86.106 E0.02667
G1 X74.812 Y86.643 E0.01693
G1 X73.847 Y85.678 E0.04305
G1 X73.311 Y85.678 E0.01693
G1 X74.812 Y87.179 E0.06699
G1 X74.812 Y87.716 E0.01693
G1 X72.774 Y85.678 E0.09094
G1 X72.237 Y85.678 E0.01693
G1 X74.812 Y88.252 E0.11489
G1 X74.812 Y88.789 E0.01693
G1 X71.701 Y85.678 E0.13884
G1 X71.164 Y85.678 E0.01693
G1 X74.812 Y89.326 E0.16279
G1 X74.812 Y89.862 E0.01693
G1 X70.627 Y85.678 E0.18673
G1 X70.091 Y85.678 E0.01693
G1 X74.812 Y90.399 E0.21068
G1 X74.812 Y90.936 E0.01693
G1 X69.554 Y85.678 E0.23463
G1 X69.017 Y85.678 E0.01693
G1 X74.812 Y91.472 E0.25858
G1 X74.812 Y92.009 E0.01693
G1 X68.481 Y85.678 E0.28252
G1 X67.944 Y85.678 E0.01693
G1 X74.812 Y92.546 E0.30647
M73 P1 R100
G1 X74.812 Y93.082 E0.01693
G1 X67.407 Y85.678 E0.33042
G1 X66.871 Y85.678 E0.01693
G1 X74.812 Y93.619 E0.35437
G1 X74.812 Y94.156 E0.01693
G1 X66.334 Y85.678 E0.37832
G1 X65.797 Y85.678 E0.01693
G1 X74.812 Y94.692 E0.40226
G1 X74.812 Y95.229 E0.01693
G1 X65.261 Y85.678 E0.42621
G1 X64.724 Y85.678 E0.01693
G1 X74.812 Y95.766 E0.45016
G1 X74.812 Y96.302 E0.01693
G1 X64.187 Y85.678 E0.47411
G1 X63.651 Y85.678 E0.01693
G1 X74.812 Y96.839 E0.49806
G1 X74.812 Y97.376 E0.01693
G1 X63.114 Y85.678 E0.52200
G1 X62.577 Y85.678 E0.01693
G1 X74.812 Y97.912 E0.54595
G1 X74.812 Y98.449 E0.01693
G1 X62.041 Y85.678 E0.56990
G1 X61.504 Y85.678 E0.01693
G1 X74.812 Y98.986 E0.59385
G1 X74.812 Y99.522 E0.01693
G1 X60.967 Y85.678 E0.61779
G1 X60.431 Y85.678 E0.01693
G1 X74.812 Y100.059 E0.64174
M73 P1 R99
G1 X74.812 Y100.596 E0.01693
G1 X59.894 Y85.678 E0.66569
G1 X59.357 Y85.678 E0.01693
G1 X74.812 Y101.132 E0.68964
G1 X74.812 Y101.669 E0.01693
G1 X58.821 Y85.678 E0.71359
G1 X58.284 Y85.678 E0.01693
G1 X74.812 Y102.206 E0.73753
G1 X74.812 Y102.742 E0.01693
G1 X57.747 Y85.678 E0.76148
G1 X57.211 Y85.678 E0.01693
G1 X74.812 Y103.279 E0.78543
G1 X74.812 Y103.816 E0.01693
G1 X56.674 Y85.678 E0.80938
G1 X56.137 Y85.678 E0.01693
G1 X74.812 Y104.352 E0.83333
G1 X74.812 Y104.889 E0.01693
G1 X55.601 Y85.678 E0.85727
G1 X55.064 Y85.678 E0.01693
G1 X74.798 Y105.411 E0.88058
G1 X74.261 Y105.411 E0.01693
G1 X54.527 Y85.678 E0.88058
G1 X54.513 Y85.678 E0.00045
G1 X54.513 Y86.200 E0.01648
G1 X73.724 Y105.411 E0.85727
G1 X73.188 Y105.411 E0.01693
G1 X54.513 Y86.737 E0.83332
G1 X54.513 Y87.274 E0.01693
G1 X72.651 Y105.411 E0.80938
G1 X72.114 Y105.411 E0.01693
G1 X54.513 Y87.810 E0.78543
G1 X54.513 Y88.347 E0.01693
G1 X71.578 Y105.411 E0.76148
G1 X71.041 Y105.411 E0.01693
G1 X54.513 Y88.884 E0.73753
G1 X54.513 Y89.420 E0.01693
G1 X70.504 Y105.411 E0.71359
G1 X69.968 Y105.411 E0.01693
G1 X54.513 Y89.957 E0.68964
G1 X54.513 Y90.494 E0.01693
G1 X69.431 Y105.411 E0.66569
G1 X68.894 Y105.411 E0.01693
G1 X54.513 Y91.030 E0.64174
G1 X54.513 Y91.567 E0.01693
G1 X68.358 Y105.411 E0.61779
G1 X67.821 Y105.411 E0.01693
G1 X54.513 Y92.104 E0.59385
G1 X54.513 Y92.640 E0.01693
G1 X67.284 Y105.411 E0.56990
G1 X66.748 Y105.411 E0.01693
G1 X54.513 Y93.177 E0.54595
G1 X54.513 Y93.714 E0.01693
G1 X66.211 Y105.411 E0.52200
G1 X65.674 Y105.411 E0.01693
G1 X54.513 Y94.250 E0.49805
G1 X54.513 Y94.787 E0.01693
G1 X65.138 Y105.411 E0.47411
G1 X64.601 Y105.411 E0.01693
G1 X54.513 Y95.324 E0.45016
G1 X54.513 Y95.860 E0.01693
G1 X64.064 Y105.411 E0.42621
G1 X63.528 Y105.411 E0.01693
G1 X54.513 Y96.397 E0.40226
G1 X54.513 Y96.933 E0.01693
G1 X62.991 Y105.411 E0.37831
G1 X62.454 Y105.411 E0.01693
G1 X54.513 Y97.470 E0.35437
G1 X54.513 Y98.007 E0.01693
G1 X61.918 Y105.411 E0.33042
G1 X61.381 Y105.411 E0.01693
G1 X54.513 Y98.543 E0.30647
G1 X54.513 Y99.080 E0.01693
G1 X60.844 Y105.411 E0.28252
G1 X60.308 Y105.411 E0.01693
G1 X54.513 Y99.617 E0.25858
G1 X54.513 Y100.153 E0.01693
G1 X59.771 Y105.411 E0.23463
G1 X59.234 Y105.411 E0.01693
G1 X54.513 Y100.690 E0.21068
G1 X54.513 Y101.227 E0.01693
G1 X58.698 Y105.411 E0.18673
G1 X58.161 Y105.411 E0.01693
G1 X54.513 Y101.763 E0.16278
G1 X54.513 Y102.300 E0.01693
G1 X57.624 Y105.411 E0.13884
G1 X57.088 Y105.411 E0.01693
G1 X54.513 Y102.837 E0.11489
G1 X54.513 Y103.373 E0.01693
G1 X56.551 Y105.411 E0.09094
G1 X56.014 Y105.411 E0.01693
G1 X54.513 Y103.910 E0.06699
G1 X54.513 Y104.447 E0.01693
G1 X55.478 Y105.411 E0.04304
G1 X54.941 Y105.411 E0.01693
G1 X54.343 Y104.814 E0.02667
M204 S1250
; stop printing object cross_beam_top4.stl id:3 copy 0
; printing object cross_beam_top1.stl id:0 copy 0
G1 E-2.24000 F4200.000
;WIPE_START
G1 F7200.000
G1 X54.941 Y105.411 E-0.46837
G1 X55.478 Y105.411 E-0.29740
G1 X55.291 Y105.225 E-0.14623
;WIPE_END
G1 E-0.04800 F4200.000
G1 Z0.400 F9000.000
G1 X57.946 Y65.590
G1 Z0.200
G1 E3.20000 F2400.000
M204 S800
;TYPE:Support material
;WIDTH:0.42
G1 F1200.000
G1 X57.946 Y52.844 E0.39964
G1 X57.191 Y52.844 E0.02365
G1 X57.191 Y65.420 E0.39432
G1 X56.437 Y65.420 E0.02365
G1 X56.437 Y52.844 E0.39432
G1 X55.683 Y52.844 E0.02365
G1 X55.683 Y65.420 E0.39432
G1 X54.929 Y65.420 E0.02365
G1 X54.929 Y52.844 E0.39432
G1 X54.175 Y52.844 E0.02365
G1 X54.175 Y65.420 E0.39432
G1 X53.421 Y65.420 E0.02365
G1 X53.421 Y52.844 E0.39432
G1 X52.666 Y52.844 E0.02365
G1 X52.666 Y65.420 E0.39432
G1 X51.912 Y65.420 E0.02365
G1 X51.912 Y52.674 E0.39964
M204 S1250
G1 E-2.24000 F4200.000
;WIPE_START
G1 F7200.000
G1 X51.912 Y54.320 E-0.91200
;WIPE_END
G1 E-0.04800 F4200.000
G1 Z0.400 F9000.000
G1 X85.095 Y52.674
G1 Z0.200
G1 E3.20000 F2400.000
M204 S800
G1 F1200.000
G1 X85.095 Y65.420 E0.39964
M73 P2 R99
G1 X85.849 Y65.420 E0.02365
G1 X85.849 Y52.844 E0.39432
G1 X86.604 Y52.844 E0.02365
G1 X86.604 Y65.420 E0.39432
G1 X87.358 Y65.420 E0.02365
G1 X87.358 Y52.844 E0.39432
G1 X88.112 Y52.844 E0.02365
G1 X88.112 Y65.420 E0.39432
G1 X88.866 Y65.420 E0.02365
G1 X88.866 Y52.844 E0.39432
G1 X89.620 Y52.844 E0.02365
G1 X89.620 Y65.590 E0.39964
M204 S1250
G1 E-2.24000 F4200.000
;WIPE_START
G1 F7200.000
G1 X89.620 Y63.944 E-0.91200
;WIPE_END
G1 E-0.04800 F4200.000
G1 Z0.400 F9000.000
G1 X83.168 Y69.282
G1 Z0.200
G1 E3.20000 F2400.000
M204 S800
;TYPE:Perimeter
G1 F1200.000
G1 X59.414 Y69.282 E0.74481
G1 X59.414 Y48.983 E0.63646
G1 X83.168 Y48.983 E0.74480
G1 X83.168 Y69.222 E0.63458
M204 S1250
G1 X83.546 Y69.659 F9000.000
M204 S800
;TYPE:External perimeter
G1 F1200.000
G1 X59.037 Y69.659 E0.76845
G1 X59.037 Y48.606 E0.66011
M73 P2 R98
G1 X83.545 Y48.606 E0.76845
G1 X83.546 Y69.599 E0.65823
M204 S1250
G1 X83.157 Y69.565 F9000.000
G1 E-2.24000 F4200.000
;WIPE_START
G1 F7200.000
G1 X81.900 Y69.603 E-0.91200
;WIPE_END
G1 E-0.04800 F4200.000
G1 Z0.400 F9000.000
G1 X83.055 Y49.867
G1 Z0.200
G1 E3.20000 F2400.000
M204 S800
;TYPE:Solid infill
;WIDTH:0.424202
G1 F1200.000
G1 X82.454 Y49.266 E0.02697
G1 X81.914 Y49.266 E0.01710
G1 X82.886 Y50.237 E0.04354
G1 X82.886 Y50.776 E0.01710
G1 X81.375 Y49.266 E0.06771
G1 X80.836 Y49.266 E0.01710
G1 X82.886 Y51.315 E0.09189
G1 X82.886 Y51.854 E0.01710
G1 X80.297 Y49.266 E0.11607
G1 X79.758 Y49.266 E0.01710
G1 X82.886 Y52.393 E0.14024
G1 X82.886 Y52.933 E0.01710
G1 X79.218 Y49.266 E0.16442
G1 X78.679 Y49.266 E0.01710
G1 X82.886 Y53.472 E0.18859
G1 X82.886 Y54.011 E0.01710
G1 X78.140 Y49.266 E0.21277
G1 X77.601 Y49.266 E0.01710
G1 X82.886 Y54.550 E0.23695
G1 X82.886 Y55.090 E0.01710
G1 X77.062 Y49.266 E0.26112
G1 X76.522 Y49.266 E0.01710
G1 X82.886 Y55.629 E0.28530
G1 X82.886 Y56.168 E0.01710
G1 X75.983 Y49.266 E0.30948
G1 X75.444 Y49.266 E0.01710
G1 X82.886 Y56.707 E0.33365
G1 X82.886 Y57.246 E0.01710
G1 X74.905 Y49.266 E0.35783
G1 X74.365 Y49.266 E0.01710
G1 X82.886 Y57.786 E0.38200
G1 X82.886 Y58.325 E0.01710
G1 X73.826 Y49.266 E0.40618
G1 X73.287 Y49.266 E0.01710
G1 X82.886 Y58.864 E0.43036
G1 X82.886 Y59.403 E0.01710
G1 X72.748 Y49.266 E0.45453
G1 X72.209 Y49.266 E0.01710
G1 X82.886 Y59.943 E0.47871
G1 X82.886 Y60.482 E0.01710
G1 X71.669 Y49.266 E0.50289
G1 X71.130 Y49.266 E0.01710
G1 X82.886 Y61.021 E0.52706
G1 X82.886 Y61.560 E0.01710
G1 X70.591 Y49.266 E0.55124
G1 X70.052 Y49.266 E0.01710
G1 X82.886 Y62.099 E0.57541
G1 X82.886 Y62.639 E0.01710
G1 X69.513 Y49.266 E0.59959
G1 X68.973 Y49.266 E0.01710
G1 X82.886 Y63.178 E0.62377
G1 X82.886 Y63.717 E0.01710
G1 X68.434 Y49.266 E0.64794
G1 X67.895 Y49.266 E0.01710
G1 X82.886 Y64.256 E0.67212
G1 X82.886 Y64.795 E0.01710
G1 X67.356 Y49.266 E0.69630
G1 X66.816 Y49.266 E0.01710
G1 X82.886 Y65.335 E0.72047
G1 X82.886 Y65.874 E0.01710
G1 X66.277 Y49.266 E0.74465
G1 X65.738 Y49.266 E0.01710
G1 X82.886 Y66.413 E0.76883
G1 X82.886 Y66.952 E0.01710
G1 X65.199 Y49.266 E0.79300
G1 X64.660 Y49.266 E0.01710
G1 X82.886 Y67.492 E0.81718
G1 X82.886 Y68.031 E0.01710
G1 X64.120 Y49.266 E0.84135
G1 X63.581 Y49.266 E0.01710
G1 X82.886 Y68.570 E0.86553
G1 X82.886 Y68.999 E0.01360
G1 X82.776 Y68.999 E0.00349
G1 X63.042 Y49.266 E0.88477
G1 X62.503 Y49.266 E0.01710
G1 X82.236 Y68.999 E0.88477
G1 X81.697 Y68.999 E0.01710
G1 X61.964 Y49.266 E0.88477
G1 X61.424 Y49.266 E0.01710
G1 X81.158 Y68.999 E0.88477
G1 X80.619 Y68.999 E0.01710
G1 X60.885 Y49.266 E0.88477
G1 X60.346 Y49.266 E0.01710
G1 X80.079 Y68.999 E0.88477
G1 X79.540 Y68.999 E0.01710
G1 X59.807 Y49.266 E0.88477
G1 X59.697 Y49.266 E0.00349
G1 X59.697 Y49.695 E0.01361
G1 X79.001 Y68.999 E0.86552
G1 X78.462 Y68.999 E0.01710
G1 X59.697 Y50.234 E0.84135
G1 X59.697 Y50.773 E0.01710
G1 X77.923 Y68.999 E0.81717
G1 X77.383 Y68.999 E0.01710
G1 X59.697 Y51.312 E0.79299
G1 X59.697 Y51.852 E0.01710
G1 X76.844 Y68.999 E0.76882
G1 X76.305 Y68.999 E0.01710
G1 X59.697 Y52.391 E0.74464
G1 X59.697 Y52.930 E0.01710
G1 X75.766 Y68.999 E0.72047
G1 X75.227 Y68.999 E0.01710
G1 X59.697 Y53.469 E0.69629
M73 P3 R98
G1 X59.697 Y54.009 E0.01710
G1 X74.687 Y68.999 E0.67211
G1 X74.148 Y68.999 E0.01710
G1 X59.697 Y54.548 E0.64794
G1 X59.697 Y55.087 E0.01710
G1 X73.609 Y68.999 E0.62376
G1 X73.070 Y68.999 E0.01710
G1 X59.697 Y55.626 E0.59959
G1 X59.697 Y56.165 E0.01710
G1 X72.530 Y68.999 E0.57541
G1 X71.991 Y68.999 E0.01710
G1 X59.697 Y56.705 E0.55123
G1 X59.697 Y57.244 E0.01710
G1 X71.452 Y68.999 E0.52706
G1 X70.913 Y68.999 E0.01710
G1 X59.697 Y57.783 E0.50288
G1 X59.697 Y58.322 E0.01710
G1 X70.374 Y68.999 E0.47870
G1 X69.834 Y68.999 E0.01710
G1 X59.697 Y58.861 E0.45453
G1 X59.697 Y59.401 E0.01710
G1 X69.295 Y68.999 E0.43035
M73 P3 R97
G1 X68.756 Y68.999 E0.01710
G1 X59.697 Y59.940 E0.40618
G1 X59.697 Y60.479 E0.01710
G1 X68.217 Y68.999 E0.38200
G1 X67.678 Y68.999 E0.01710
G1 X59.697 Y61.018 E0.35782
G1 X59.697 Y61.558 E0.01710
G1 X67.138 Y68.999 E0.33365
G1 X66.599 Y68.999 E0.01710
G1 X59.697 Y62.097 E0.30947
G1 X59.697 Y62.636 E0.01710
G1 X66.060 Y68.999 E0.28530
