; generated by PrusaSlicer 2.3.0+win64 on 2021-05-15 at 17:04:18 UTC


;
;

;
;
; 

; external perimeters extrusion width = 0.45mm
; perimeters extrusion width = 0.45mm
; infill extrusion width = 0.45mm
; solid infill extrusion width = 0.45mm
; top infill extrusion width = 0.40mm
; support material extrusion width = 0.35mm
; first layer extrusion width = 0.42mm

M73 P0 R113
M201 X1250 Y1250 Z400 E5000 ; sets maximum accelerations, mm/sec^2
M203 X180 Y180 Z12 E80 ; sets maximum feedrates, mm/sec
M204 P1250 R1250 T1250 ; sets acceleration (P, T) and retract acceleration (R), mm/sec^2
M205 X8.00 Y8.00 Z2.00 E10.00 ; sets the jerk limits, mm/sec
M205 S0 T0 ; sets the minimum extruding and travel feed rate, mm/sec
M107
;TYPE:Custom
G90 ; use absolute coordinates
M83 ; extruder relative mode
M104 S170 ; set extruder temp for bed leveling
M140 S60 ; set bed temp
M109 R170 ; wait for bed leveling temp
M190 S60 ; wait for bed temp
G28 ; home all without mesh bed level
G29 ; mesh bed leveling 
M104 S215 ; set extruder temp
G92 E0.0
G1 Y-2.0 X179 F2400
G1 Z3 F720
M109 S215 ; wait for extruder temp

; intro line
G1 X170 F1000
G1 Z0.2 F720
G1 X110.0 E8.0 F900
G1 X40.0 E10.0 F700
G92 E0.0

M221 S95 ; set flow
G21 ; set units to millimeters
G90 ; use absolute coordinates
M83 ; use relative distances for extrusion
M900 K0.2 ; Filament gcode LA 1.5
; ; Filament gcode LA 1.0
;LAYER_CHANGE
;Z:0.2
;HEIGHT:0.2
;BEFORE_LAYER_CHANGE
G92 E0.0
;0.2


G1 E-3.20000 F4200.000
G1 Z0.200 F9000.000
;AFTER_LAYER_CHANGE
;0.2
G1 Z0.400
M73 P0 R112
G1 X41.339 Y52.922
G1 Z0.200
G1 E3.20000 F2400.000
M204 S800
;TYPE:Skirt
;WIDTH:0.42
G1 F1200.000
G1 X42.073 Y52.802 E0.02331
G1 X137.917 Y52.802 E3.00513
G1 X138.805 Y52.975 E0.02837
G1 X139.567 Y53.471 E0.02849
G1 X140.087 Y54.216 E0.02849
G1 X140.289 Y55.101 E0.02849
G1 X141.397 Y117.991 E1.97215
G1 X141.387 Y126.732 E0.27407
G1 X141.288 Y127.224 E0.01574
G1 X141.090 Y127.681 E0.01562
G1 X140.798 Y128.089 E0.01574
G1 X140.430 Y128.425 E0.01562
G1 X139.938 Y128.704 E0.01775
G1 X139.393 Y128.859 E0.01775
G1 X129.138 Y130.216 E0.32433
G1 X37.906 Y128.888 E2.86085
G1 X37.371 Y128.813 E0.01692
G1 X36.867 Y128.620 E0.01692
G1 X36.416 Y128.316 E0.01704
G1 X36.049 Y127.921 E0.01692
G1 X35.712 Y127.275 E0.02284
G1 X35.586 Y126.558 E0.02284
G1 X35.591 Y103.663 E0.71783
G1 X39.721 Y54.940 E1.53317
G1 X39.822 Y54.456 E0.01550
G1 X40.020 Y54.003 E0.01550
G1 X40.308 Y53.601 E0.01550
G1 X40.676 Y53.265 E0.01562
G1 X41.286 Y52.950 E0.02155
M204 S1250
; printing object sign2.stl id:1 copy 0
G1 E-2.24000 F4200.000
;WIPE_START
G1 F7200.000
G1 X42.073 Y52.802 E-0.44376
G1 X42.918 Y52.802 E-0.46824
;WIPE_END
G1 E-0.04800 F4200.000
G1 Z0.400 F9000.000
G1 X47.767 Y103.200
G1 Z0.200
G1 E3.20000 F2400.000
M204 S800
;TYPE:Support material
G1 F1200.000
G1 X47.767 Y120.661 E0.54749
M204 S1250
G1 E-2.24000 F4200.000
;WIPE_START
G1 F7200.000
G1 X47.767 Y119.016 E-0.91200
;WIPE_END
G1 E-0.04800 F4200.000
G1 Z0.400 F9000.000
G1 X56.342 Y123.514
G1 Z0.200
G1 E3.20000 F2400.000
M204 S800
;TYPE:Support material interface
;WIDTH:0.35
G1 F1200.000
G1 X56.342 Y120.824 E0.06870
G1 X56.196 Y120.679 E0.00526
G1 X56.187 Y120.053 E0.01597
G1 X55.825 Y120.053 E0.00925
G1 X55.825 Y123.371 E0.08472
G1 X55.307 Y123.371 E0.01322
G1 X55.307 Y120.053 E0.08472
G1 X54.789 Y120.053 E0.01322
G1 X54.789 Y123.371 E0.08472
G1 X54.271 Y123.371 E0.01322
G1 X54.271 Y120.053 E0.08472
G1 X53.753 Y120.053 E0.01322
G1 X53.753 Y123.371 E0.08472
G1 X53.236 Y123.371 E0.01322
G1 X53.236 Y120.053 E0.08472
G1 X52.718 Y120.053 E0.01322
G1 X52.718 Y123.371 E0.08472
G1 X52.200 Y123.371 E0.01322
G1 X52.200 Y120.053 E0.08472
G1 X52.176 Y120.053 E0.00060
G1 X52.168 Y120.679 E0.01597
G1 X51.878 Y120.965 E0.01040
G1 X51.682 Y120.965 E0.00499
G1 X51.682 Y123.371 E0.06145
G1 X51.164 Y123.371 E0.01322
G1 X51.164 Y120.965 E0.06145
G1 X50.647 Y120.965 E0.01322
G1 X50.647 Y123.371 E0.06145
G1 X50.129 Y123.371 E0.01322
G1 X50.129 Y120.965 E0.06145
G1 X49.611 Y120.965 E0.01322
G1 X49.611 Y123.371 E0.06145
G1 X49.093 Y123.371 E0.01322
G1 X49.093 Y120.965 E0.06145
G1 X48.575 Y120.965 E0.01322
G1 X48.575 Y123.371 E0.06145
G1 X48.057 Y123.371 E0.01322
G1 X48.057 Y120.965 E0.06145
G1 X47.821 Y120.965 E0.00603
G1 X47.540 Y120.687 E0.01010
G1 X47.540 Y123.371 E0.06854
G1 X47.022 Y123.371 E0.01322
G1 X47.022 Y120.053 E0.08472
G1 X46.504 Y120.053 E0.01322
G1 X46.504 Y123.371 E0.08472
G1 X45.986 Y123.371 E0.01322
G1 X45.986 Y120.053 E0.08472
G1 X45.468 Y120.053 E0.01322
G1 X45.468 Y123.371 E0.08472
G1 X44.951 Y123.371 E0.01322
G1 X44.951 Y120.053 E0.08472
G1 X44.433 Y120.053 E0.01322
G1 X44.433 Y123.371 E0.08472
G1 X43.915 Y123.371 E0.01322
G1 X43.915 Y120.053 E0.08472
G1 X43.397 Y120.053 E0.01322
G1 X43.397 Y123.371 E0.08472
G1 X42.879 Y123.371 E0.01322
G1 X42.879 Y120.965 E0.06145
G1 X42.362 Y120.965 E0.01322
G1 X42.362 Y123.371 E0.06145
G1 X41.844 Y123.371 E0.01322
G1 X41.844 Y120.928 E0.06239
G1 X41.590 Y120.674 E0.00916
G1 X41.590 Y120.053 E0.01585
G1 X41.326 Y120.053 E0.00674
G1 X41.326 Y123.371 E0.08472
G1 X40.808 Y123.371 E0.01322
G1 X40.808 Y120.053 E0.08472
G1 X40.290 Y120.053 E0.01322
G1 X40.290 Y123.514 E0.08837
M204 S1250
G1 E-2.24000 F4200.000
;WIPE_START
G1 F7200.000
G1 X40.290 Y121.869 E-0.91200
;WIPE_END
G1 E-0.04800 F4200.000
G1 Z0.400 F9000.000
G1 X38.717 Y126.511
G1 Z0.200
G1 E3.20000 F2400.000
M204 S800
;TYPE:Support material
;WIDTH:0.42
G1 F1200.000
G1 X38.717 Y103.812 E0.71172
G1 X37.963 Y103.812 E0.02365
G1 X37.963 Y126.511 E0.71172
M204 S1250
G1 E-2.24000 F4200.000
;WIPE_START
G1 F7200.000
G1 X37.963 Y124.865 E-0.91200
;WIPE_END
G1 E-0.04800 F4200.000
G1 Z0.400 F9000.000
G1 X60.588 Y106.879
G1 Z0.200
G1 E3.20000 F2400.000
M204 S800
G1 F1200.000
G1 X60.588 Y120.705 E0.43351
M204 S1250
G1 X60.485 Y120.822 F9000.000
M204 S800
;TYPE:Support material interface
;WIDTH:0.35
G1 F1200.000
G1 X60.485 Y123.371 E0.06510
G1 X61.003 Y123.371 E0.01322
G1 X61.003 Y120.053 E0.08472
G1 X61.521 Y120.053 E0.01322
G1 X61.521 Y123.371 E0.08472
G1 X62.038 Y123.371 E0.01322
G1 X62.038 Y120.053 E0.08472
G1 X62.556 Y120.053 E0.01322
G1 X62.556 Y123.371 E0.08472
G1 X63.074 Y123.371 E0.01322
G1 X63.074 Y120.053 E0.08472
G1 X63.592 Y120.053 E0.01322
G1 X63.592 Y123.371 E0.08472
G1 X64.110 Y123.371 E0.01322
G1 X64.110 Y120.053 E0.08472
G1 X64.627 Y120.053 E0.01322
G1 X64.627 Y123.371 E0.08472
G1 X65.145 Y123.371 E0.01322
G1 X65.145 Y120.053 E0.08472
G1 X65.232 Y120.053 E0.00221
G1 X65.241 Y120.679 E0.01597
G1 X65.531 Y120.965 E0.01040
G1 X65.663 Y120.965 E0.00338
G1 X65.663 Y123.371 E0.06145
G1 X66.181 Y123.371 E0.01322
G1 X66.181 Y120.965 E0.06145
G1 X66.699 Y120.965 E0.01322
G1 X66.699 Y123.371 E0.06145
G1 X67.216 Y123.371 E0.01322
G1 X67.216 Y120.965 E0.06145
G1 X67.734 Y120.965 E0.01322
G1 X67.734 Y123.371 E0.06145
G1 X68.252 Y123.371 E0.01322
G1 X68.252 Y120.965 E0.06145
G1 X68.688 Y120.965 E0.01113
G1 X68.770 Y120.884 E0.00293
G1 X68.770 Y123.371 E0.06351
G1 X69.288 Y123.371 E0.01322
G1 X69.288 Y120.053 E0.08472
G1 X69.805 Y120.053 E0.01322
G1 X69.805 Y123.514 E0.08837
M204 S1250
G1 E-2.24000 F4200.000
;WIPE_START
G1 F7200.000
G1 X69.805 Y121.869 E-0.91200
;WIPE_END
G1 E-0.04800 F4200.000
G1 Z0.400 F9000.000
G1 X69.638 Y126.511
G1 Z0.200
G1 E3.20000 F2400.000
M204 S800
;TYPE:Support material
;WIDTH:0.42
G1 F1200.000
G1 X69.638 Y123.719 E0.08756
G1 X68.884 Y123.719 E0.02365
G1 X68.884 Y126.342 E0.08224
G1 X68.129 Y126.342 E0.02365
G1 X68.129 Y123.719 E0.08224
G1 X67.375 Y123.719 E0.02365
G1 X67.375 Y126.342 E0.08224
G1 X66.621 Y126.342 E0.02365
G1 X66.621 Y123.719 E0.08224
G1 X65.867 Y123.719 E0.02365
G1 X65.867 Y126.342 E0.08224
G1 X65.113 Y126.342 E0.02365
G1 X65.113 Y123.719 E0.08224
G1 X64.359 Y123.719 E0.02365
G1 X64.359 Y126.342 E0.08224
G1 X63.604 Y126.342 E0.02365
G1 X63.604 Y123.719 E0.08223
G1 X62.850 Y123.719 E0.02365
G1 X62.850 Y126.342 E0.08223
G1 X62.096 Y126.342 E0.02365
G1 X62.096 Y123.719 E0.08223
G1 X61.342 Y123.719 E0.02365
G1 X61.342 Y126.342 E0.08223
G1 X60.588 Y126.342 E0.02365
G1 X60.588 Y123.719 E0.08223
G1 X59.834 Y123.719 E0.02365
G1 X59.834 Y126.342 E0.08223
G1 X59.079 Y126.342 E0.02365
G1 X59.079 Y120.678 E0.17757
G1 X58.325 Y120.678 E0.02365
G1 X58.325 Y126.342 E0.17757
G1 X57.571 Y126.342 E0.02365
G1 X57.571 Y120.678 E0.17757
G1 X57.169 Y120.678 E0.01260
G1 X57.169 Y123.719 E0.09534
G1 X56.817 Y123.719 E0.01105
G1 X56.817 Y126.342 E0.08224
G1 X56.063 Y126.342 E0.02365
G1 X56.063 Y123.719 E0.08224
G1 X55.309 Y123.719 E0.02365
G1 X55.309 Y126.342 E0.08224
G1 X54.555 Y126.342 E0.02365
G1 X54.555 Y123.719 E0.08224
G1 X53.800 Y123.719 E0.02365
G1 X53.800 Y126.342 E0.08224
G1 X53.046 Y126.342 E0.02365
G1 X53.046 Y123.719 E0.08224
G1 X52.292 Y123.719 E0.02365
G1 X52.292 Y126.342 E0.08224
G1 X51.538 Y126.342 E0.02365
G1 X51.538 Y123.719 E0.08224
G1 X50.784 Y123.719 E0.02365
G1 X50.784 Y126.342 E0.08223
G1 X50.030 Y126.342 E0.02365
G1 X50.030 Y123.719 E0.08223
G1 X49.275 Y123.719 E0.02365
G1 X49.275 Y126.342 E0.08223
G1 X48.521 Y126.342 E0.02365
G1 X48.521 Y123.719 E0.08223
G1 X47.767 Y123.719 E0.02365
G1 X47.767 Y126.342 E0.08223
G1 X47.013 Y126.342 E0.02365
G1 X47.013 Y123.719 E0.08223
G1 X46.259 Y123.719 E0.02365
G1 X46.259 Y126.342 E0.08223
G1 X45.505 Y126.342 E0.02365
G1 X45.505 Y123.719 E0.08223
G1 X44.750 Y123.719 E0.02365
G1 X44.750 Y126.342 E0.08223
G1 X43.996 Y126.342 E0.02365
G1 X43.996 Y123.719 E0.08223
G1 X43.242 Y123.719 E0.02365
G1 X43.242 Y126.342 E0.08223
G1 X42.488 Y126.342 E0.02365
G1 X42.488 Y123.719 E0.08223
G1 X41.734 Y123.719 E0.02365
G1 X41.734 Y126.342 E0.08223
G1 X40.980 Y126.342 E0.02365
G1 X40.980 Y123.719 E0.08223
G1 X40.226 Y123.719 E0.02365
G1 X40.226 Y126.342 E0.08223
G1 X39.471 Y126.342 E0.02365
G1 X39.471 Y103.812 E0.70640
G1 X40.226 Y103.812 E0.02365
G1 X40.226 Y119.706 E0.49835
G1 X40.980 Y119.706 E0.02365
G1 X40.980 Y97.176 E0.70640
G1 X41.734 Y97.176 E0.02365
G1 X41.734 Y101.720 E0.14247
G1 X41.868 Y101.586 E0.00597
G1 X42.488 Y101.586 E0.01942
G1 X42.488 Y97.176 E0.13825
G1 X43.242 Y97.176 E0.02365
G1 X43.242 Y119.706 E0.70640
G1 X43.996 Y119.706 E0.02365
G1 X43.996 Y97.176 E0.70640
G1 X44.750 Y97.176 E0.02365
G1 X44.750 Y119.706 E0.70640
G1 X45.505 Y119.706 E0.02365
G1 X45.505 Y97.176 E0.70640
G1 X46.259 Y97.176 E0.02365
G1 X46.259 Y119.706 E0.70640
M73 P1 R112
G1 X47.013 Y119.706 E0.02365
G1 X47.013 Y97.176 E0.70640
G1 X47.767 Y97.176 E0.02365
G1 X47.767 Y101.707 E0.14207
G1 X47.887 Y101.586 E0.00536
G1 X48.521 Y101.586 E0.01989
G1 X48.521 Y97.176 E0.13825
G1 X49.275 Y97.176 E0.02365
G1 X49.275 Y101.586 E0.13825
G1 X50.030 Y101.586 E0.02365
G1 X50.030 Y97.176 E0.13825
G1 X50.784 Y97.176 E0.02365
G1 X50.784 Y101.586 E0.13825
G1 X51.538 Y101.586 E0.02365
G1 X51.538 Y97.176 E0.13825
G1 X52.292 Y97.176 E0.02365
G1 X52.292 Y119.706 E0.70640
G1 X53.046 Y119.706 E0.02365
G1 X53.046 Y97.176 E0.70640
G1 X53.800 Y97.176 E0.02365
G1 X53.800 Y119.706 E0.70640
G1 X54.555 Y119.706 E0.02365
G1 X54.555 Y97.176 E0.70640
M73 P1 R111
G1 X55.309 Y97.176 E0.02365
G1 X55.309 Y119.706 E0.70640
G1 X56.063 Y119.706 E0.02365
G1 X56.063 Y97.176 E0.70640
G1 X56.817 Y97.176 E0.02365
G1 X56.817 Y101.586 E0.13825
G1 X57.571 Y101.586 E0.02365
G1 X57.571 Y97.176 E0.13825
G1 X58.325 Y97.176 E0.02365
G1 X58.325 Y101.586 E0.13825
G1 X59.079 Y101.586 E0.02365
G1 X59.079 Y97.176 E0.13825
G1 X59.792 Y97.176 E0.02235
G1 X59.792 Y100.494 E0.10403
G1 X59.834 Y100.494 E0.00130
G1 X59.834 Y101.586 E0.03422
G1 X60.517 Y101.586 E0.02144
G1 X60.588 Y101.657 E0.00315
G1 X60.588 Y97.176 E0.14049
G1 X61.342 Y97.176 E0.02365
G1 X61.342 Y119.706 E0.70640
G1 X62.096 Y119.706 E0.02365
G1 X62.096 Y97.176 E0.70640
G1 X62.850 Y97.176 E0.02365
G1 X62.850 Y119.706 E0.70640
G1 X63.604 Y119.706 E0.02365
G1 X63.604 Y97.176 E0.70640
G1 X64.359 Y97.176 E0.02365
G1 X64.359 Y119.706 E0.70640
G1 X65.113 Y119.706 E0.02365
G1 X65.113 Y97.176 E0.70640
G1 X65.867 Y97.176 E0.02365
G1 X65.867 Y101.586 E0.13825
G1 X66.621 Y101.586 E0.02365
G1 X66.621 Y97.176 E0.13825
G1 X67.375 Y97.176 E0.02365
G1 X67.375 Y101.586 E0.13825
G1 X68.129 Y101.586 E0.02365
G1 X68.129 Y97.176 E0.13825
G1 X68.884 Y97.176 E0.02365
G1 X68.884 Y119.706 E0.70640
G1 X69.638 Y119.706 E0.02365
G1 X69.638 Y97.176 E0.70640
G1 X70.392 Y97.176 E0.02365
G1 X70.392 Y126.342 E0.91446
G1 X71.146 Y126.342 E0.02365
G1 X71.146 Y97.176 E0.91446
G1 X71.900 Y97.176 E0.02365
G1 X71.900 Y126.511 E0.91978
M204 S1250
G1 E-2.24000 F4200.000
;WIPE_START
G1 F7200.000
G1 X71.900 Y124.865 E-0.91200
;WIPE_END
G1 E-0.04800 F4200.000
G1 Z0.400 F9000.000
G1 X73.430 Y119.910
G1 Z0.200
G1 E3.20000 F2400.000
M204 S800
;TYPE:Support material interface
;WIDTH:0.35
G1 F1200.000
G1 X73.430 Y123.371 E0.08837
G1 X73.948 Y123.371 E0.01322
G1 X73.948 Y120.750 E0.06692
G1 X74.165 Y120.965 E0.00780
G1 X74.466 Y120.965 E0.00767
G1 X74.466 Y123.371 E0.06145
G1 X74.984 Y123.371 E0.01322
G1 X74.984 Y120.965 E0.06145
G1 X75.501 Y120.965 E0.01322
G1 X75.501 Y123.371 E0.06145
G1 X76.019 Y123.371 E0.01322
G1 X76.019 Y120.965 E0.06145
G1 X76.537 Y120.965 E0.01322
G1 X76.537 Y123.371 E0.06145
G1 X77.055 Y123.371 E0.01322
G1 X77.055 Y120.965 E0.06145
G1 X77.573 Y120.965 E0.01322
G1 X77.573 Y123.371 E0.06145
G1 X78.090 Y123.371 E0.01322
G1 X78.090 Y120.804 E0.06556
G1 X78.217 Y120.679 E0.00452
G1 X78.226 Y120.053 E0.01599
G1 X78.608 Y120.053 E0.00975
G1 X78.608 Y123.371 E0.08472
G1 X79.126 Y123.371 E0.01322
G1 X79.126 Y120.053 E0.08472
G1 X79.644 Y120.053 E0.01322
G1 X79.644 Y123.371 E0.08472
G1 X80.162 Y123.371 E0.01322
G1 X80.162 Y120.053 E0.08472
G1 X80.679 Y120.053 E0.01322
G1 X80.679 Y123.371 E0.08472
G1 X81.197 Y123.371 E0.01322
G1 X81.197 Y120.053 E0.08472
G1 X81.715 Y120.053 E0.01322
G1 X81.715 Y123.371 E0.08472
G1 X82.233 Y123.371 E0.01322
G1 X82.233 Y120.053 E0.08472
G1 X82.751 Y120.053 E0.01322
G1 X82.751 Y123.371 E0.08472
G1 X83.268 Y123.371 E0.01322
G1 X83.268 Y120.892 E0.06331
G1 X83.342 Y120.965 E0.00265
G1 X83.786 Y120.965 E0.01134
G1 X83.786 Y123.371 E0.06145
G1 X84.304 Y123.371 E0.01322
G1 X84.304 Y120.965 E0.06145
G1 X84.822 Y120.965 E0.01322
G1 X84.822 Y123.371 E0.06145
G1 X85.340 Y123.371 E0.01322
G1 X85.340 Y120.965 E0.06145
G1 X85.858 Y120.965 E0.01322
G1 X85.858 Y123.371 E0.06145
G1 X86.375 Y123.371 E0.01322
G1 X86.375 Y120.965 E0.06145
G1 X86.622 Y120.965 E0.00630
G1 X86.682 Y120.905 E0.00216
G1 X86.682 Y121.215 E0.00791
G1 X86.893 Y121.008 E0.00756
G1 X86.893 Y123.371 E0.06036
G1 X87.411 Y123.371 E0.01322
G1 X87.411 Y120.053 E0.08472
G1 X87.929 Y120.053 E0.01322
G1 X87.929 Y123.371 E0.08472
G1 X88.447 Y123.371 E0.01322
G1 X88.447 Y120.053 E0.08472
G1 X88.964 Y120.053 E0.01322
G1 X88.964 Y123.371 E0.08472
G1 X89.482 Y123.371 E0.01322
G1 X89.482 Y120.053 E0.08472
G1 X90.000 Y120.053 E0.01322
G1 X90.000 Y123.371 E0.08472
G1 X90.518 Y123.371 E0.01322
G1 X90.518 Y120.053 E0.08472
G1 X91.036 Y120.053 E0.01322
G1 X91.036 Y123.371 E0.08472
G1 X91.553 Y123.371 E0.01322
G1 X91.553 Y120.704 E0.06811
G1 X91.819 Y120.965 E0.00950
G1 X92.071 Y120.965 E0.00644
G1 X92.071 Y123.371 E0.06145
G1 X92.589 Y123.371 E0.01322
G1 X92.589 Y120.965 E0.06145
G1 X93.107 Y120.965 E0.01322
G1 X93.107 Y123.371 E0.06145
G1 X93.625 Y123.371 E0.01322
G1 X93.625 Y120.965 E0.06145
G1 X94.142 Y120.965 E0.01322
G1 X94.142 Y123.371 E0.06145
G1 X94.660 Y123.371 E0.01322
G1 X94.660 Y120.965 E0.06145
G1 X95.178 Y120.965 E0.01322
G1 X95.178 Y123.371 E0.06145
G1 X95.696 Y123.371 E0.01322
G1 X95.696 Y120.686 E0.06856
G1 X95.713 Y120.053 E0.01617
G1 X96.214 Y120.053 E0.01279
G1 X96.214 Y123.514 E0.08837
