; generated by PrusaSlicer 2.3.0+win64 on 2021-05-16 at 00:52:23 UTC


;
;

;
;
; 

; external perimeters extrusion width = 0.45mm
; perimeters extrusion width = 0.45mm
; infill extrusion width = 0.45mm
; solid infill extrusion width = 0.45mm
; top infill extrusion width = 0.40mm
; support material extrusion width = 0.35mm
; first layer extrusion width = 0.42mm

M73 P0 R45
M201 X1250 Y1250 Z400 E5000 ; sets maximum accelerations, mm/sec^2
M203 X180 Y180 Z12 E80 ; sets maximum feedrates, mm/sec
M204 P1250 R1250 T1250 ; sets acceleration (P, T) and retract acceleration (R), mm/sec^2
M205 X8.00 Y8.00 Z2.00 E10.00 ; sets the jerk limits, mm/sec
M205 S0 T0 ; sets the minimum extruding and travel feed rate, mm/sec
M107
;TYPE:Custom
G90 ; use absolute coordinates
M83 ; extruder relative mode
M104 S170 ; set extruder temp for bed leveling
M140 S60 ; set bed temp
M109 R170 ; wait for bed leveling temp
M190 S60 ; wait for bed temp
G28 ; home all without mesh bed level
G29 ; mesh bed leveling 
M104 S215 ; set extruder temp
G92 E0.0
G1 Y-2.0 X179 F2400
G1 Z3 F720
M109 S215 ; wait for extruder temp

; intro line
G1 X170 F1000
G1 Z0.2 F720
G1 X110.0 E8.0 F900
G1 X40.0 E10.0 F700
G92 E0.0

M221 S95 ; set flow
G21 ; set units to millimeters
G90 ; use absolute coordinates
M83 ; use relative distances for extrusion
M900 K0.2 ; Filament gcode LA 1.5
; ; Filament gcode LA 1.0
;LAYER_CHANGE
;Z:0.2
;HEIGHT:0.2
;BEFORE_LAYER_CHANGE
G92 E0.0
;0.2


M73 P0 R44
G1 E-3.20000 F4200.000
G1 Z0.200 F9000.000
;AFTER_LAYER_CHANGE
;0.2
G1 Z0.400
G1 X62.725 Y65.249
G1 Z0.200
G1 E3.20000 F2400.000
M204 S800
;TYPE:Skirt
;WIDTH:0.42
G1 F1200.000
G1 X63.562 Y65.087 E0.02673
G1 X116.414 Y65.086 E1.65713
G1 X117.302 Y65.260 E0.02837
G1 X118.063 Y65.755 E0.02849
G1 X118.583 Y66.501 E0.02849
G1 X118.786 Y67.386 E0.02849
G1 X118.787 Y112.578 E1.41697
G1 X118.729 Y113.062 E0.01526
G1 X118.571 Y113.526 E0.01538
G1 X117.997 Y114.306 E0.03036
G1 X117.275 Y114.751 E0.02661
G1 X116.438 Y114.913 E0.02673
G1 X63.582 Y114.914 E1.65725
G1 X63.087 Y114.860 E0.01562
G1 X62.617 Y114.706 E0.01550
G1 X62.190 Y114.458 E0.01550
G1 X61.820 Y114.124 E0.01562
G1 X61.376 Y113.401 E0.02661
G1 X61.213 Y112.568 E0.02661
G1 X61.213 Y67.456 E1.41446
G1 X61.267 Y66.961 E0.01562
G1 X61.421 Y66.491 E0.01550
G1 X61.669 Y66.063 E0.01550
M73 P1 R44
G1 X62.003 Y65.694 E0.01562
G1 X62.674 Y65.281 E0.02473
M204 S1250
; printing object sign3.stl id:0 copy 0
G1 E-2.24000 F4200.000
;WIPE_START
G1 F7200.000
G1 X63.562 Y65.087 E-0.50363
G1 X64.299 Y65.087 E-0.40838
;WIPE_END
G1 E-0.04800 F4200.000
G1 Z0.400 F9000.000
G1 X64.377 Y68.251
G1 Z0.200
G1 E3.20000 F2400.000
M204 S800
;TYPE:Perimeter
G1 F1200.000
G1 X115.623 Y68.251 E1.60679
G1 X115.623 Y111.749 E1.36388
G1 X64.377 Y111.749 E1.60679
G1 X64.377 Y68.311 E1.36200
M204 S1250
G1 X64.000 Y67.873 F9000.000
M204 S800
;TYPE:External perimeter
G1 F1200.000
G1 X116.000 Y67.873 E1.63043
G1 X116.000 Y112.127 E1.38753
G1 X64.000 Y112.127 E1.63043
G1 X64.000 Y67.933 E1.38564
M204 S1250
G1 X64.389 Y67.967 F9000.000
G1 E-2.24000 F4200.000
;WIPE_START
G1 F7200.000
G1 X65.646 Y67.932 E-0.91200
;WIPE_END
G1 E-0.04800 F4200.000
G1 Z0.400 F9000.000
G1 X114.743 Y68.364
G1 Z0.200
G1 E3.20000 F2400.000
M204 S800
;TYPE:Solid infill
;WIDTH:0.422058
G1 F1200.000
G1 X115.340 Y68.961 E0.02661
G1 X115.340 Y69.497 E0.01690
G1 X114.377 Y68.533 E0.04295
G1 X113.841 Y68.533 E0.01690
G1 X115.340 Y70.033 E0.06686
G1 X115.340 Y70.569 E0.01690
G1 X113.304 Y68.533 E0.09076
G1 X112.768 Y68.533 E0.01690
G1 X115.340 Y71.105 E0.11467
G1 X115.340 Y71.641 E0.01690
G1 X112.232 Y68.533 E0.13857
G1 X111.696 Y68.533 E0.01690
G1 X115.340 Y72.178 E0.16248
G1 X115.340 Y72.714 E0.01690
G1 X111.160 Y68.533 E0.18638
G1 X110.624 Y68.533 E0.01690
G1 X115.340 Y73.250 E0.21029
G1 X115.340 Y73.786 E0.01690
G1 X110.087 Y68.533 E0.23419
G1 X109.551 Y68.533 E0.01690
G1 X115.340 Y74.322 E0.25810
G1 X115.340 Y74.859 E0.01690
G1 X109.015 Y68.533 E0.28200
G1 X108.479 Y68.533 E0.01690
G1 X115.340 Y75.395 E0.30591
G1 X115.340 Y75.931 E0.01690
G1 X107.943 Y68.533 E0.32981
G1 X107.406 Y68.533 E0.01690
G1 X115.340 Y76.467 E0.35372
G1 X115.340 Y77.003 E0.01690
G1 X106.870 Y68.533 E0.37762
G1 X106.334 Y68.533 E0.01690
G1 X115.340 Y77.539 E0.40153
G1 X115.340 Y78.076 E0.01690
G1 X105.798 Y68.533 E0.42543
M73 P2 R44
G1 X105.262 Y68.533 E0.01690
G1 X115.340 Y78.612 E0.44934
G1 X115.340 Y79.148 E0.01690
G1 X104.726 Y68.533 E0.47324
G1 X104.189 Y68.533 E0.01690
G1 X115.340 Y79.684 E0.49715
G1 X115.340 Y80.220 E0.01690
G1 X103.653 Y68.533 E0.52105
G1 X103.117 Y68.533 E0.01690
G1 X115.340 Y80.757 E0.54496
G1 X115.340 Y81.293 E0.01690
G1 X102.581 Y68.533 E0.56886
G1 X102.045 Y68.533 E0.01690
G1 X115.340 Y81.829 E0.59277
G1 X115.340 Y82.365 E0.01690
G1 X101.508 Y68.533 E0.61667
G1 X100.972 Y68.533 E0.01690
G1 X115.340 Y82.901 E0.64058
G1 X115.340 Y83.437 E0.01690
G1 X100.436 Y68.533 E0.66448
G1 X99.900 Y68.533 E0.01690
G1 X115.340 Y83.974 E0.68839
G1 X115.340 Y84.510 E0.01690
G1 X99.364 Y68.533 E0.71229
G1 X98.828 Y68.533 E0.01690
G1 X115.340 Y85.046 E0.73620
G1 X115.340 Y85.582 E0.01690
G1 X98.291 Y68.533 E0.76010
G1 X97.755 Y68.533 E0.01690
G1 X115.340 Y86.118 E0.78401
G1 X115.340 Y86.655 E0.01690
G1 X97.219 Y68.533 E0.80791
G1 X96.683 Y68.533 E0.01690
G1 X115.340 Y87.191 E0.83182
G1 X115.340 Y87.727 E0.01690
G1 X96.147 Y68.533 E0.85572
G1 X95.610 Y68.533 E0.01690
M73 P2 R43
G1 X115.340 Y88.263 E0.87963
G1 X115.340 Y88.799 E0.01690
G1 X95.074 Y68.533 E0.90353
G1 X94.538 Y68.533 E0.01690
G1 X115.340 Y89.335 E0.92744
G1 X115.340 Y89.872 E0.01690
G1 X94.002 Y68.533 E0.95134
G1 X93.466 Y68.533 E0.01690
G1 X115.340 Y90.408 E0.97525
M73 P3 R43
G1 X115.340 Y90.944 E0.01690
G1 X92.930 Y68.533 E0.99915
G1 X92.393 Y68.533 E0.01690
G1 X115.340 Y91.480 E1.02306
G1 X115.340 Y92.016 E0.01690
G1 X91.857 Y68.533 E1.04696
G1 X91.321 Y68.533 E0.01690
G1 X115.340 Y92.553 E1.07087
G1 X115.340 Y93.089 E0.01690
G1 X90.785 Y68.533 E1.09477
G1 X90.249 Y68.533 E0.01690
G1 X115.340 Y93.625 E1.11868
G1 X115.340 Y94.161 E0.01690
G1 X89.712 Y68.533 E1.14258
G1 X89.176 Y68.533 E0.01690
G1 X115.340 Y94.697 E1.16649
G1 X115.340 Y95.234 E0.01690
G1 X88.640 Y68.533 E1.19039
G1 X88.104 Y68.533 E0.01690
G1 X115.340 Y95.770 E1.21430
G1 X115.340 Y96.306 E0.01690
G1 X87.568 Y68.533 E1.23820
G1 X87.032 Y68.533 E0.01690
G1 X115.340 Y96.842 E1.26211
G1 X115.340 Y97.378 E0.01690
G1 X86.495 Y68.533 E1.28601
G1 X85.959 Y68.533 E0.01690
G1 X115.340 Y97.914 E1.30992
M73 P4 R43
G1 X115.340 Y98.451 E0.01690
G1 X85.423 Y68.533 E1.33382
G1 X84.887 Y68.533 E0.01690
G1 X115.340 Y98.987 E1.35773
G1 X115.340 Y99.523 E0.01690
G1 X84.351 Y68.533 E1.38163
G1 X83.814 Y68.533 E0.01690
G1 X115.340 Y100.059 E1.40554
G1 X115.340 Y100.595 E0.01690
G1 X83.278 Y68.533 E1.42944
G1 X82.742 Y68.533 E0.01690
G1 X115.340 Y101.132 E1.45335
G1 X115.340 Y101.668 E0.01690
G1 X82.206 Y68.533 E1.47725
G1 X81.670 Y68.533 E0.01690
G1 X115.340 Y102.204 E1.50116
G1 X115.340 Y102.740 E0.01690
G1 X81.134 Y68.533 E1.52506
G1 X80.597 Y68.533 E0.01690
G1 X115.340 Y103.276 E1.54897
G1 X115.340 Y103.812 E0.01690
G1 X80.061 Y68.533 E1.57287
G1 X79.525 Y68.533 E0.01690
G1 X115.340 Y104.349 E1.59678
M73 P5 R42
G1 X115.340 Y104.885 E0.01690
G1 X78.989 Y68.533 E1.62068
G1 X78.453 Y68.533 E0.01690
G1 X115.340 Y105.421 E1.64459
G1 X115.340 Y105.957 E0.01690
G1 X77.916 Y68.533 E1.66849
G1 X77.380 Y68.533 E0.01690
G1 X115.340 Y106.493 E1.69240
G1 X115.340 Y107.030 E0.01690
G1 X76.844 Y68.533 E1.71630
G1 X76.308 Y68.533 E0.01690
G1 X115.340 Y107.566 E1.74021
G1 X115.340 Y108.102 E0.01690
G1 X75.772 Y68.533 E1.76411
G1 X75.236 Y68.533 E0.01690
G1 X115.340 Y108.638 E1.78802
G1 X115.340 Y109.174 E0.01690
G1 X74.699 Y68.533 E1.81192
G1 X74.163 Y68.533 E0.01690
G1 X115.340 Y109.710 E1.83583
M73 P6 R42
G1 X115.340 Y110.247 E0.01690
G1 X73.627 Y68.533 E1.85973
G1 X73.091 Y68.533 E0.01690
G1 X115.340 Y110.783 E1.88364
G1 X115.340 Y111.319 E0.01690
G1 X72.555 Y68.533 E1.90754
G1 X72.018 Y68.533 E0.01690
G1 X114.952 Y111.467 E1.91413
G1 X114.416 Y111.467 E0.01690
G1 X71.482 Y68.533 E1.91413
G1 X70.946 Y68.533 E0.01690
G1 X113.879 Y111.467 E1.91413
G1 X113.343 Y111.467 E0.01690
G1 X70.410 Y68.533 E1.91413
G1 X69.874 Y68.533 E0.01690
G1 X112.807 Y111.467 E1.91413
M73 P7 R42
G1 X112.271 Y111.467 E0.01690
G1 X69.338 Y68.533 E1.91413
G1 X68.801 Y68.533 E0.01690
G1 X111.735 Y111.467 E1.91413
M73 P7 R41
G1 X111.199 Y111.467 E0.01690
G1 X68.265 Y68.533 E1.91413
G1 X67.729 Y68.533 E0.01690
G1 X110.662 Y111.467 E1.91413
G1 X110.126 Y111.467 E0.01690
G1 X67.193 Y68.533 E1.91413
G1 X66.657 Y68.533 E0.01690
G1 X109.590 Y111.467 E1.91413
G1 X109.054 Y111.467 E0.01690
G1 X66.120 Y68.533 E1.91413
G1 X65.584 Y68.533 E0.01690
G1 X108.518 Y111.467 E1.91413
G1 X107.981 Y111.467 E0.01690
G1 X65.048 Y68.533 E1.91413
M73 P8 R41
G1 X64.660 Y68.533 E0.01224
G1 X64.660 Y68.681 E0.00466
G1 X107.445 Y111.467 E1.90754
G1 X106.909 Y111.467 E0.01690
G1 X64.660 Y69.217 E1.88364
G1 X64.660 Y69.753 E0.01690
G1 X106.373 Y111.467 E1.85973
G1 X105.837 Y111.467 E0.01690
G1 X64.660 Y70.290 E1.83583
G1 X64.660 Y70.826 E0.01690
G1 X105.301 Y111.467 E1.81192
G1 X104.764 Y111.467 E0.01690
G1 X64.660 Y71.362 E1.78802
G1 X64.660 Y71.898 E0.01690
G1 X104.228 Y111.467 E1.76411
G1 X103.692 Y111.467 E0.01690
G1 X64.660 Y72.434 E1.74021
G1 X64.660 Y72.971 E0.01690
G1 X103.156 Y111.467 E1.71630
M73 P9 R41
G1 X102.620 Y111.467 E0.01690
G1 X64.660 Y73.507 E1.69240
G1 X64.660 Y74.043 E0.01690
G1 X102.083 Y111.467 E1.66849
G1 X101.547 Y111.467 E0.01690
G1 X64.660 Y74.579 E1.64459
G1 X64.660 Y75.115 E0.01690
G1 X101.011 Y111.467 E1.62068
G1 X100.475 Y111.467 E0.01690
G1 X64.660 Y75.651 E1.59678
M73 P9 R40
G1 X64.660 Y76.188 E0.01690
G1 X99.939 Y111.467 E1.57287
G1 X99.403 Y111.467 E0.01690
G1 X64.660 Y76.724 E1.54897
G1 X64.660 Y77.260 E0.01690
G1 X98.866 Y111.467 E1.52506
G1 X98.330 Y111.467 E0.01690
G1 X64.660 Y77.796 E1.50116
G1 X64.660 Y78.332 E0.01690
G1 X97.794 Y111.467 E1.47725
G1 X97.258 Y111.467 E0.01690
G1 X64.660 Y78.869 E1.45335
M73 P10 R40
G1 X64.660 Y79.405 E0.01690
G1 X96.722 Y111.467 E1.42944
G1 X96.185 Y111.467 E0.01690
G1 X64.660 Y79.941 E1.40554
G1 X64.660 Y80.477 E0.01690
G1 X95.649 Y111.467 E1.38163
G1 X95.113 Y111.467 E0.01690
G1 X64.660 Y81.013 E1.35773
G1 X64.660 Y81.549 E0.01690
G1 X94.577 Y111.467 E1.33382
G1 X94.041 Y111.467 E0.01690
G1 X64.660 Y82.086 E1.30992
G1 X64.660 Y82.622 E0.01690
G1 X93.505 Y111.467 E1.28601
G1 X92.968 Y111.467 E0.01690
G1 X64.660 Y83.158 E1.26211
G1 X64.660 Y83.694 E0.01690
G1 X92.432 Y111.467 E1.23820
G1 X91.896 Y111.467 E0.01690
G1 X64.660 Y84.230 E1.21430
G1 X64.660 Y84.767 E0.01690
G1 X91.360 Y111.467 E1.19039
G1 X90.824 Y111.467 E0.01690
G1 X64.660 Y85.303 E1.16649
G1 X64.660 Y85.839 E0.01690
G1 X90.287 Y111.467 E1.14258
M73 P11 R40
G1 X89.751 Y111.467 E0.01690
G1 X64.660 Y86.375 E1.11868
G1 X64.660 Y86.911 E0.01690
G1 X89.215 Y111.467 E1.09477
G1 X88.679 Y111.467 E0.01690
G1 X64.660 Y87.447 E1.07087
G1 X64.660 Y87.984 E0.01690
G1 X88.143 Y111.467 E1.04696
G1 X87.607 Y111.467 E0.01690
G1 X64.660 Y88.520 E1.02306
G1 X64.660 Y89.056 E0.01690
G1 X87.070 Y111.467 E0.99915
G1 X86.534 Y111.467 E0.01690
G1 X64.660 Y89.592 E0.97525
G1 X64.660 Y90.128 E0.01690
G1 X85.998 Y111.467 E0.95134
G1 X85.462 Y111.467 E0.01690
G1 X64.660 Y90.665 E0.92744
G1 X64.660 Y91.201 E0.01690
G1 X84.926 Y111.467 E0.90353
G1 X84.389 Y111.467 E0.01690
G1 X64.660 Y91.737 E0.87963
M73 P11 R39
G1 X64.660 Y92.273 E0.01690
G1 X83.853 Y111.467 E0.85572
G1 X83.317 Y111.467 E0.01690
G1 X64.660 Y92.809 E0.83182
G1 X64.660 Y93.345 E0.01690
G1 X82.781 Y111.467 E0.80791
G1 X82.245 Y111.467 E0.01690
G1 X64.660 Y93.882 E0.78401
G1 X64.660 Y94.418 E0.01690
G1 X81.709 Y111.467 E0.76010
G1 X81.172 Y111.467 E0.01690
G1 X64.660 Y94.954 E0.73620
M73 P12 R39
G1 X64.660 Y95.490 E0.01690
G1 X80.636 Y111.467 E0.71229
G1 X80.100 Y111.467 E0.01690
G1 X64.660 Y96.026 E0.68839
G1 X64.660 Y96.563 E0.01690
G1 X79.564 Y111.467 E0.66448
G1 X79.028 Y111.467 E0.01690
G1 X64.660 Y97.099 E0.64058
G1 X64.660 Y97.635 E0.01690
G1 X78.491 Y111.467 E0.61667
G1 X77.955 Y111.467 E0.01690
G1 X64.660 Y98.171 E0.59277
G1 X64.660 Y98.707 E0.01690
G1 X77.419 Y111.467 E0.56886
G1 X76.883 Y111.467 E0.01690
G1 X64.660 Y99.243 E0.54496
G1 X64.660 Y99.780 E0.01690
G1 X76.347 Y111.467 E0.52105
G1 X75.811 Y111.467 E0.01690
G1 X64.660 Y100.316 E0.49715
G1 X64.660 Y100.852 E0.01690
G1 X75.274 Y111.467 E0.47324
G1 X74.738 Y111.467 E0.01690
G1 X64.660 Y101.388 E0.44934
G1 X64.660 Y101.924 E0.01690
G1 X74.202 Y111.467 E0.42543
G1 X73.666 Y111.467 E0.01690
G1 X64.660 Y102.461 E0.40153
G1 X64.660 Y102.997 E0.01690
G1 X73.130 Y111.467 E0.37762
G1 X72.593 Y111.467 E0.01690
G1 X64.660 Y103.533 E0.35372
G1 X64.660 Y104.069 E0.01690
G1 X72.057 Y111.467 E0.32981
G1 X71.521 Y111.467 E0.01690
G1 X64.660 Y104.605 E0.30591
G1 X64.660 Y105.141 E0.01690
G1 X70.985 Y111.467 E0.28200
G1 X70.449 Y111.467 E0.01690
G1 X64.660 Y105.678 E0.25810
G1 X64.660 Y106.214 E0.01690
G1 X69.913 Y111.467 E0.23419
G1 X69.376 Y111.467 E0.01690
G1 X64.660 Y106.750 E0.21029
G1 X64.660 Y107.286 E0.01690
G1 X68.840 Y111.467 E0.18638
G1 X68.304 Y111.467 E0.01690
G1 X64.660 Y107.822 E0.16248
G1 X64.660 Y108.359 E0.01690
G1 X67.768 Y111.467 E0.13857
G1 X67.232 Y111.467 E0.01690
G1 X64.660 Y108.895 E0.11467
G1 X64.660 Y109.431 E0.01690
G1 X66.695 Y111.467 E0.09076
G1 X66.159 Y111.467 E0.01690
G1 X64.660 Y109.967 E0.06686
G1 X64.660 Y110.503 E0.01690
G1 X65.623 Y111.467 E0.04295
G1 X65.087 Y111.467 E0.01690
G1 X64.490 Y110.870 E0.02661
M204 S1250
; stop printing object sign3.stl id:0 copy 0
M106 S84.15
;LAYER_CHANGE
;Z:0.35
;HEIGHT:0.15
;BEFORE_LAYER_CHANGE
G92 E0.0
;0.35


G1 E-2.24000 F4200.000
;WIPE_START
G1 F7200.000
G1 X65.087 Y111.467 E-0.46778
G1 X65.623 Y111.467 E-0.29713
G1 X65.435 Y111.279 E-0.14709
;WIPE_END
G1 E-0.04800 F4200.000
G1 Z0.400 F9000.000
;AFTER_LAYER_CHANGE
;0.35
G1 X61.376 Y113.401
G1 Z0.350
G1 E3.20000 F2400.000
;TYPE:Skirt
;WIDTH:0.42
G1 X61.213 Y112.568 E0.02052
G1 X61.213 Y67.456 E1.09104
G1 X61.267 Y66.961 E0.01205
G1 X61.421 Y66.491 E0.01195
G1 X61.669 Y66.063 E0.01195
G1 X62.003 Y65.694 E0.01205
G1 X62.725 Y65.249 E0.02052
G1 X63.562 Y65.087 E0.02062
G1 X116.414 Y65.086 E1.27822
G1 X117.302 Y65.260 E0.02188
G1 X118.063 Y65.755 E0.02197
G1 X118.583 Y66.501 E0.02197
G1 X118.786 Y67.386 E0.02197
G1 X118.787 Y112.578 E1.09297
G1 X118.729 Y113.062 E0.01177
G1 X118.571 Y113.526 E0.01186
G1 X117.997 Y114.306 E0.02342
G1 X117.275 Y114.751 E0.02052
G1 X116.438 Y114.913 E0.02062
G1 X63.582 Y114.914 E1.27831
G1 X63.087 Y114.860 E0.01205
G1 X62.617 Y114.706 E0.01195
G1 X62.190 Y114.458 E0.01195
G1 X61.820 Y114.124 E0.01205
G1 X61.407 Y113.452 E0.01907
; printing object sign3.stl id:0 copy 0
G1 E-2.24000 F4200.000
;WIPE_START
G1 F7200.000
G1 X61.213 Y112.568 E-0.50156
G1 X61.213 Y111.827 E-0.41044
;WIPE_END
G1 E-0.04800 F4200.000
G1 Z0.550 F9000.000
G1 X64.233 Y111.894
G1 Z0.350
G1 E3.20000 F2400.000
M204 S800
;TYPE:Perimeter
;WIDTH:0.45
G1 X64.233 Y68.106 E1.14092
G1 X115.767 Y68.106 E1.34278
M73 P13 R39
G1 X115.767 Y111.894 E1.14092
G1 X64.293 Y111.894 E1.34121
M204 S1250
G1 X63.815 Y112.312 F9000.000
M204 S800
;TYPE:External perimeter
G1 F1800.000
G1 X63.815 Y67.688 E1.16269
G1 X116.185 Y67.688 E1.36455
G1 X116.185 Y112.312 E1.16269
G1 X63.875 Y112.312 E1.36299
M204 S1250
G1 X63.929 Y111.928 F9000.000
G1 E-2.24000 F4200.000
;WIPE_START
G1 F7200.000
G1 X63.873 Y110.666 E-0.91200
;WIPE_END
G1 E-0.04800 F4200.000
