; generated by PrusaSlicer 2.3.0+win64 on 2021-05-16 at 16:55:45 UTC


;
;

;
;
; 

; external perimeters extrusion width = 0.45mm
; perimeters extrusion width = 0.45mm
; infill extrusion width = 0.45mm
; solid infill extrusion width = 0.45mm
; top infill extrusion width = 0.40mm
; support material extrusion width = 0.35mm
; first layer extrusion width = 0.42mm

M73 P0 R79
M201 X1250 Y1250 Z400 E5000 ; sets maximum accelerations, mm/sec^2
M203 X180 Y180 Z12 E80 ; sets maximum feedrates, mm/sec
M204 P1250 R1250 T1250 ; sets acceleration (P, T) and retract acceleration (R), mm/sec^2
M205 X8.00 Y8.00 Z2.00 E10.00 ; sets the jerk limits, mm/sec
M205 S0 T0 ; sets the minimum extruding and travel feed rate, mm/sec
M107
;TYPE:Custom
G90 ; use absolute coordinates
M83 ; extruder relative mode
M104 S170 ; set extruder temp for bed leveling
M140 S60 ; set bed temp
M109 R170 ; wait for bed leveling temp
M190 S60 ; wait for bed temp
G28 ; home all without mesh bed level
G29 ; mesh bed leveling 
M104 S215 ; set extruder temp
G92 E0.0
G1 Y-2.0 X179 F2400
G1 Z3 F720
M109 S215 ; wait for extruder temp

; intro line
G1 X170 F1000
G1 Z0.2 F720
G1 X110.0 E8.0 F900
G1 X40.0 E10.0 F700
G92 E0.0

M221 S95 ; set flow
G21 ; set units to millimeters
G90 ; use absolute coordinates
M83 ; use relative distances for extrusion
M900 K0.2 ; Filament gcode LA 1.5
; ; Filament gcode LA 1.0
;LAYER_CHANGE
;Z:0.2
;HEIGHT:0.2
;BEFORE_LAYER_CHANGE
G92 E0.0
;0.2


G1 E-3.20000 F4200.000
G1 Z0.200 F9000.000
;AFTER_LAYER_CHANGE
;0.2
G1 Z0.400
G1 X61.382 Y52.848
M73 P0 R78
G1 Z0.200
G1 E3.20000 F2400.000
M204 S800
;TYPE:Skirt
;WIDTH:0.42
G1 F1200.000
G1 X61.729 Y52.251 E0.02166
G1 X62.229 Y51.780 E0.02154
G1 X62.847 Y51.471 E0.02166
G1 X63.524 Y51.353 E0.02154
G1 X116.414 Y51.352 E1.65833
G1 X117.298 Y51.524 E0.02825
G1 X118.053 Y52.011 E0.02813
G1 X118.574 Y52.746 E0.02825
G1 X118.785 Y53.622 E0.02825
G1 X118.787 Y98.810 E1.41685
G1 X118.618 Y99.684 E0.02790
G1 X98.071 Y134.062 E1.25575
G1 X97.707 Y134.525 E0.01846
G1 X96.962 Y135.025 E0.02813
G1 X96.089 Y135.214 E0.02802
G1 X83.907 Y135.044 E0.38200
G1 X83.086 Y134.876 E0.02626
G1 X82.436 Y134.486 E0.02378
G1 X81.941 Y133.911 E0.02378
G1 X61.551 Y100.025 E1.23999
G1 X61.291 Y99.409 E0.02095
G1 X61.213 Y98.806 E0.01906
G1 X61.213 Y53.726 E1.41348
G1 X61.371 Y52.907 E0.02614
M204 S1250
; printing object light.stl id:1 copy 0
G1 E-2.24000 F4200.000
;WIPE_START
G1 F7200.000
G1 X61.729 Y52.251 E-0.41436
G1 X62.229 Y51.780 E-0.38072
G1 X62.418 Y51.686 E-0.11692
;WIPE_END
G1 E-0.04800 F4200.000
G1 Z0.400 F9000.000
G1 X83.967 Y109.904
G1 Z0.200
G1 E3.20000 F2400.000
M204 S800
;TYPE:Support material
G1 F1200.000
G1 X83.967 Y118.933 E0.28309
G1 X84.721 Y118.933 E0.02365
G1 X84.721 Y110.074 E0.27777
G1 X85.475 Y110.074 E0.02365
G1 X85.475 Y118.933 E0.27777
G1 X85.782 Y118.933 E0.00963
G1 X85.782 Y116.241 E0.08440
G1 X86.090 Y115.933 E0.01366
G1 X86.229 Y115.933 E0.00435
G1 X86.229 Y110.074 E0.18371
G1 X86.983 Y110.074 E0.02365
G1 X86.983 Y115.933 E0.18371
G1 X87.738 Y115.933 E0.02365
G1 X87.738 Y110.074 E0.18371
G1 X88.492 Y110.074 E0.02365
G1 X88.492 Y115.933 E0.18371
G1 X89.246 Y115.933 E0.02365
G1 X89.246 Y110.074 E0.18371
G1 X90.000 Y110.074 E0.02365
G1 X90.000 Y115.933 E0.18371
G1 X90.754 Y115.933 E0.02365
G1 X90.754 Y110.074 E0.18371
G1 X91.508 Y110.074 E0.02365
G1 X91.508 Y115.933 E0.18371
G1 X92.262 Y115.933 E0.02365
G1 X92.262 Y110.074 E0.18371
G1 X93.017 Y110.074 E0.02365
G1 X93.017 Y115.933 E0.18371
G1 X93.771 Y115.933 E0.02365
G1 X93.771 Y110.074 E0.18371
G1 X94.525 Y110.074 E0.02365
G1 X94.525 Y118.933 E0.27777
G1 X95.279 Y118.933 E0.02365
G1 X95.279 Y110.074 E0.27777
G1 X96.033 Y110.074 E0.02365
G1 X96.033 Y119.102 E0.28309
M204 S1250
G1 E-2.24000 F4200.000
;WIPE_START
G1 F7200.000
G1 X96.033 Y117.457 E-0.91200
;WIPE_END
G1 E-0.04800 F4200.000
G1 Z0.400 F9000.000
G1 X83.967 Y122.734
G1 Z0.200
G1 E3.20000 F2400.000
M204 S800
G1 F1200.000
G1 X83.967 Y132.668 E0.31145
G1 X84.721 Y132.668 E0.02365
G1 X84.721 Y122.904 E0.30613
G1 X85.475 Y122.904 E0.02365
G1 X85.475 Y132.668 E0.30613
G1 X86.229 Y132.668 E0.02365
G1 X86.229 Y125.904 E0.21207
G1 X86.983 Y125.904 E0.02365
G1 X86.983 Y132.668 E0.21207
G1 X87.738 Y132.668 E0.02365
G1 X87.738 Y125.904 E0.21207
G1 X88.492 Y125.904 E0.02365
G1 X88.492 Y132.668 E0.21207
G1 X89.246 Y132.668 E0.02365
G1 X89.246 Y125.904 E0.21207
G1 X90.000 Y125.904 E0.02365
G1 X90.000 Y132.668 E0.21207
G1 X90.754 Y132.668 E0.02365
G1 X90.754 Y125.904 E0.21207
G1 X91.508 Y125.904 E0.02365
G1 X91.508 Y132.668 E0.21207
G1 X92.262 Y132.668 E0.02365
G1 X92.262 Y125.904 E0.21207
G1 X93.017 Y125.904 E0.02365
G1 X93.017 Y132.668 E0.21207
G1 X93.771 Y132.668 E0.02365
G1 X93.771 Y125.904 E0.21207
G1 X93.910 Y125.904 E0.00435
G1 X94.218 Y125.596 E0.01366
G1 X94.218 Y122.904 E0.08440
G1 X94.525 Y122.904 E0.00963
G1 X94.525 Y132.668 E0.30613
G1 X95.279 Y132.668 E0.02365
G1 X95.279 Y122.904 E0.30613
G1 X96.033 Y122.904 E0.02365
G1 X96.033 Y132.838 E0.31145
M204 S1250
G1 E-2.24000 F4200.000
;WIPE_START
G1 F7200.000
G1 X96.033 Y131.192 E-0.91200
;WIPE_END
G1 E-0.04800 F4200.000
G1 Z0.400 F9000.000
G1 X92.528 Y124.214
G1 Z0.200
G1 E3.20000 F2400.000
M204 S800
;TYPE:Perimeter
G1 F1200.000
G1 X87.472 Y124.214 E0.15850
G1 X87.472 Y117.623 E0.20665
G1 X92.528 Y117.623 E0.15850
G1 X92.528 Y124.154 E0.20477
M204 S1250
G1 X92.905 Y124.591 F9000.000
M204 S800
G1 F1200.000
G1 X87.095 Y124.591 E0.18215
G1 X87.095 Y117.246 E0.23030
G1 X92.905 Y117.246 E0.18215
M73 P1 R78
G1 X92.905 Y124.531 E0.22841
M204 S1250
G1 X93.282 Y124.968 F9000.000
M204 S800
;TYPE:External perimeter
G1 F1200.000
G1 X86.718 Y124.968 E0.20580
G1 X86.718 Y116.869 E0.25394
G1 X93.282 Y116.869 E0.20580
G1 X93.282 Y124.908 E0.25206
M204 S1250
G1 X92.899 Y124.851 F9000.000
G1 E-2.24000 F4200.000
;WIPE_START
G1 F7200.000
G1 X91.636 Y124.923 E-0.91200
;WIPE_END
G1 E-0.04800 F4200.000
G1 Z0.400 F9000.000
G1 X91.647 Y117.736
G1 Z0.200
G1 E3.20000 F2400.000
M204 S800
;TYPE:Solid infill
;WIDTH:0.422366
G1 F1200.000
G1 X92.245 Y118.334 E0.02667
G1 X92.245 Y118.870 E0.01693
G1 X91.280 Y117.906 E0.04304
G1 X90.744 Y117.906 E0.01693
G1 X92.245 Y119.407 E0.06698
G1 X92.245 Y119.944 E0.01693
G1 X90.207 Y117.906 E0.09093
G1 X89.670 Y117.906 E0.01693
G1 X92.245 Y120.480 E0.11487
G1 X92.245 Y121.017 E0.01693
G1 X89.134 Y117.906 E0.13881
G1 X88.597 Y117.906 E0.01693
G1 X92.245 Y121.553 E0.16276
G1 X92.245 Y122.090 E0.01693
G1 X88.061 Y117.906 E0.18670
G1 X87.755 Y117.906 E0.00964
G1 X87.755 Y118.137 E0.00730
G1 X92.245 Y122.627 E0.20033
G1 X92.245 Y123.163 E0.01693
G1 X87.755 Y118.674 E0.20033
G1 X87.755 Y119.210 E0.01693
G1 X92.245 Y123.700 E0.20033
G1 X92.245 Y123.931 E0.00729
G1 X91.939 Y123.931 E0.00964
G1 X87.755 Y119.747 E0.18670
G1 X87.755 Y120.284 E0.01693
G1 X91.403 Y123.931 E0.16275
G1 X90.866 Y123.931 E0.01693
G1 X87.755 Y120.820 E0.13881
G1 X87.755 Y121.357 E0.01693
G1 X90.329 Y123.931 E0.11486
G1 X89.793 Y123.931 E0.01693
G1 X87.755 Y121.893 E0.09092
G1 X87.755 Y122.430 E0.01693
G1 X89.256 Y123.931 E0.06698
G1 X88.720 Y123.931 E0.01693
G1 X87.755 Y122.967 E0.04303
G1 X87.755 Y123.503 E0.01693
G1 X88.353 Y124.101 E0.02666
M204 S1250
; stop printing object light.stl id:1 copy 0
; printing object sign3.stl id:0 copy 0
G1 E-2.24000 F4200.000
;WIPE_START
G1 F7200.000
G1 X87.755 Y123.503 E-0.46825
G1 X87.755 Y122.967 E-0.29738
G1 X87.942 Y123.153 E-0.14637
;WIPE_END
G1 E-0.04800 F4200.000
G1 Z0.400 F9000.000
G1 X64.754 Y97.638
G1 Z0.200
G1 E3.20000 F2400.000
M204 S800
;TYPE:Perimeter
;WIDTH:0.42
G1 F1200.000
G1 X64.754 Y54.893 E1.34023
G1 X115.246 Y54.893 E1.58314
G1 X115.246 Y97.638 E1.34023
G1 X64.814 Y97.638 E1.58126
M204 S1250
G1 X64.377 Y98.015 F9000.000
M204 S800
G1 F1200.000
G1 X64.377 Y54.516 E1.36388
G1 X115.623 Y54.516 E1.60679
G1 X115.623 Y98.015 E1.36388
G1 X64.437 Y98.015 E1.60491
M204 S1250
G1 X64.000 Y98.392 F9000.000
M204 S800
;TYPE:External perimeter
G1 F1200.000
G1 X64.000 Y54.139 E1.38753
G1 X116.000 Y54.139 E1.63043
M73 P1 R77
G1 X116.000 Y98.392 E1.38753
G1 X64.060 Y98.392 E1.62855
M204 S1250
G1 X64.114 Y98.009 F9000.000
G1 E-2.24000 F4200.000
;WIPE_START
G1 F7200.000
G1 X64.058 Y96.747 E-0.91200
;WIPE_END
G1 E-0.04800 F4200.000
G1 Z0.400 F9000.000
G1 X114.370 Y55.007
G1 Z0.200
G1 E3.20000 F2400.000
M204 S800
;TYPE:Solid infill
;WIDTH:0.420286
G1 F1200.000
G1 X114.963 Y55.600 E0.02632
G1 X114.963 Y56.133 E0.01675
G1 X114.006 Y55.176 E0.04248
G1 X113.472 Y55.176 E0.01675
G1 X114.963 Y56.667 E0.06616
G1 X114.963 Y57.201 E0.01675
G1 X112.939 Y55.176 E0.08984
G1 X112.405 Y55.176 E0.01675
G1 X114.963 Y57.735 E0.11352
G1 X114.963 Y58.268 E0.01675
G1 X111.871 Y55.176 E0.13720
G1 X111.338 Y55.176 E0.01675
G1 X114.963 Y58.802 E0.16089
G1 X114.963 Y59.336 E0.01675
G1 X110.804 Y55.176 E0.18457
G1 X110.270 Y55.176 E0.01675
G1 X114.963 Y59.869 E0.20825
G1 X114.963 Y60.403 E0.01675
G1 X109.737 Y55.176 E0.23193
G1 X109.203 Y55.176 E0.01675
G1 X114.963 Y60.937 E0.25561
G1 X114.963 Y61.470 E0.01675
G1 X108.669 Y55.176 E0.27930
G1 X108.136 Y55.176 E0.01675
G1 X114.963 Y62.004 E0.30298
G1 X114.963 Y62.538 E0.01675
G1 X107.602 Y55.176 E0.32666
G1 X107.068 Y55.176 E0.01675
G1 X114.963 Y63.071 E0.35034
G1 X114.963 Y63.605 E0.01675
G1 X106.535 Y55.176 E0.37402
G1 X106.001 Y55.176 E0.01675
G1 X114.963 Y64.139 E0.39771
G1 X114.963 Y64.672 E0.01675
G1 X105.467 Y55.176 E0.42139
G1 X104.934 Y55.176 E0.01675
G1 X114.963 Y65.206 E0.44507
G1 X114.963 Y65.740 E0.01675
G1 X104.400 Y55.176 E0.46875
G1 X103.866 Y55.176 E0.01675
G1 X114.963 Y66.273 E0.49243
G1 X114.963 Y66.807 E0.01675
G1 X103.333 Y55.176 E0.51612
G1 X102.799 Y55.176 E0.01675
G1 X114.963 Y67.341 E0.53980
M73 P2 R77
G1 X114.963 Y67.874 E0.01675
G1 X102.265 Y55.176 E0.56348
G1 X101.731 Y55.176 E0.01675
G1 X114.963 Y68.408 E0.58716
G1 X114.963 Y68.942 E0.01675
G1 X101.198 Y55.176 E0.61084
G1 X100.664 Y55.176 E0.01675
G1 X114.963 Y69.475 E0.63453
G1 X114.963 Y70.009 E0.01675
G1 X100.130 Y55.176 E0.65821
G1 X99.597 Y55.176 E0.01675
G1 X114.963 Y70.543 E0.68189
G1 X114.963 Y71.076 E0.01675
G1 X99.063 Y55.176 E0.70557
G1 X98.529 Y55.176 E0.01675
G1 X114.963 Y71.610 E0.72926
G1 X114.963 Y72.144 E0.01675
G1 X97.996 Y55.176 E0.75294
G1 X97.462 Y55.176 E0.01675
G1 X114.963 Y72.677 E0.77662
G1 X114.963 Y73.211 E0.01675
G1 X96.928 Y55.176 E0.80030
G1 X96.395 Y55.176 E0.01675
G1 X114.963 Y73.745 E0.82398
G1 X114.963 Y74.278 E0.01675
G1 X95.861 Y55.176 E0.84767
G1 X95.327 Y55.176 E0.01675
G1 X114.963 Y74.812 E0.87135
G1 X114.963 Y75.346 E0.01675
G1 X94.794 Y55.176 E0.89503
G1 X94.260 Y55.176 E0.01675
G1 X114.963 Y75.879 E0.91871
G1 X114.963 Y76.413 E0.01675
G1 X93.726 Y55.176 E0.94239
G1 X93.193 Y55.176 E0.01675
G1 X114.963 Y76.947 E0.96608
G1 X114.963 Y77.481 E0.01675
G1 X92.659 Y55.176 E0.98976
G1 X92.125 Y55.176 E0.01675
G1 X114.963 Y78.014 E1.01344
G1 X114.963 Y78.548 E0.01675
G1 X91.592 Y55.176 E1.03712
G1 X91.058 Y55.176 E0.01675
G1 X114.963 Y79.082 E1.06080
G1 X114.963 Y79.615 E0.01675
G1 X90.524 Y55.176 E1.08449
G1 X89.991 Y55.176 E0.01675
G1 X114.963 Y80.149 E1.10817
G1 X114.963 Y80.683 E0.01675
G1 X89.457 Y55.176 E1.13185
G1 X88.923 Y55.176 E0.01675
G1 X114.963 Y81.216 E1.15553
G1 X114.963 Y81.750 E0.01675
G1 X88.390 Y55.176 E1.17921
G1 X87.856 Y55.176 E0.01675
G1 X114.963 Y82.284 E1.20290
G1 X114.963 Y82.817 E0.01675
G1 X87.322 Y55.176 E1.22658
M73 P2 R76
G1 X86.789 Y55.176 E0.01675
G1 X114.963 Y83.351 E1.25026
G1 X114.963 Y83.885 E0.01675
G1 X86.255 Y55.176 E1.27394
M73 P3 R76
G1 X85.721 Y55.176 E0.01675
G1 X114.963 Y84.418 E1.29762
G1 X114.963 Y84.952 E0.01675
G1 X85.188 Y55.176 E1.32131
G1 X84.654 Y55.176 E0.01675
G1 X114.963 Y85.486 E1.34499
G1 X114.963 Y86.019 E0.01675
G1 X84.120 Y55.176 E1.36867
G1 X83.586 Y55.176 E0.01675
G1 X114.963 Y86.553 E1.39235
G1 X114.963 Y87.087 E0.01675
G1 X83.053 Y55.176 E1.41604
G1 X82.519 Y55.176 E0.01675
G1 X114.963 Y87.620 E1.43972
G1 X114.963 Y88.154 E0.01675
G1 X81.985 Y55.176 E1.46340
G1 X81.452 Y55.176 E0.01675
G1 X114.963 Y88.688 E1.48708
G1 X114.963 Y89.221 E0.01675
G1 X80.918 Y55.176 E1.51076
G1 X80.384 Y55.176 E0.01675
G1 X114.963 Y89.755 E1.53445
G1 X114.963 Y90.289 E0.01675
G1 X79.851 Y55.176 E1.55813
G1 X79.317 Y55.176 E0.01675
G1 X114.963 Y90.822 E1.58181
G1 X114.963 Y91.356 E0.01675
G1 X78.783 Y55.176 E1.60549
G1 X78.250 Y55.176 E0.01675
G1 X114.963 Y91.890 E1.62917
G1 X114.963 Y92.423 E0.01675
G1 X77.716 Y55.176 E1.65286
G1 X77.182 Y55.176 E0.01675
G1 X114.963 Y92.957 E1.67654
G1 X114.963 Y93.491 E0.01675
G1 X76.649 Y55.176 E1.70022
G1 X76.115 Y55.176 E0.01675
G1 X114.963 Y94.024 E1.72390
G1 X114.963 Y94.558 E0.01675
G1 X75.581 Y55.176 E1.74758
M73 P4 R76
G1 X75.048 Y55.176 E0.01675
G1 X114.963 Y95.092 E1.77127
G1 X114.963 Y95.626 E0.01675
G1 X74.514 Y55.176 E1.79495
M73 P4 R75
G1 X73.980 Y55.176 E0.01675
G1 X114.963 Y96.159 E1.81863
G1 X114.963 Y96.693 E0.01675
G1 X73.447 Y55.176 E1.84231
G1 X72.913 Y55.176 E0.01675
G1 X114.963 Y97.227 E1.86599
G1 X114.963 Y97.356 E0.00405
G1 X114.559 Y97.356 E0.01270
G1 X72.379 Y55.176 E1.87172
G1 X71.846 Y55.176 E0.01675
G1 X114.025 Y97.356 E1.87172
G1 X113.491 Y97.356 E0.01675
G1 X71.312 Y55.176 E1.87172
G1 X70.778 Y55.176 E0.01675
G1 X112.957 Y97.356 E1.87172
G1 X112.424 Y97.356 E0.01675
G1 X70.245 Y55.176 E1.87172
G1 X69.711 Y55.176 E0.01675
G1 X111.890 Y97.356 E1.87172
G1 X111.356 Y97.356 E0.01675
G1 X69.177 Y55.176 E1.87172
G1 X68.644 Y55.176 E0.01675
G1 X110.823 Y97.356 E1.87172
G1 X110.289 Y97.356 E0.01675
G1 X68.110 Y55.176 E1.87172
G1 X67.576 Y55.176 E0.01675
G1 X109.755 Y97.356 E1.87172
G1 X109.222 Y97.356 E0.01675
G1 X67.043 Y55.176 E1.87172
M73 P5 R75
G1 X66.509 Y55.176 E0.01675
G1 X108.688 Y97.356 E1.87172
G1 X108.154 Y97.356 E0.01675
G1 X65.975 Y55.176 E1.87172
G1 X65.442 Y55.176 E0.01675
G1 X107.621 Y97.356 E1.87172
G1 X107.087 Y97.356 E0.01675
G1 X65.037 Y55.305 E1.86599
G1 X65.037 Y55.839 E0.01675
G1 X106.553 Y97.356 E1.84231
G1 X106.020 Y97.356 E0.01675
G1 X65.037 Y56.373 E1.81863
M73 P5 R74
G1 X65.037 Y56.906 E0.01675
G1 X105.486 Y97.356 E1.79495
G1 X104.952 Y97.356 E0.01675
G1 X65.037 Y57.440 E1.77127
G1 X65.037 Y57.974 E0.01675
G1 X104.419 Y97.356 E1.74758
G1 X103.885 Y97.356 E0.01675
G1 X65.037 Y58.507 E1.72390
G1 X65.037 Y59.041 E0.01675
G1 X103.351 Y97.356 E1.70022
G1 X102.818 Y97.356 E0.01675
G1 X65.037 Y59.575 E1.67654
G1 X65.037 Y60.108 E0.01675
G1 X102.284 Y97.356 E1.65286
G1 X101.750 Y97.356 E0.01675
G1 X65.037 Y60.642 E1.62917
G1 X65.037 Y61.176 E0.01675
G1 X101.217 Y97.356 E1.60549
G1 X100.683 Y97.356 E0.01675
G1 X65.037 Y61.709 E1.58181
M73 P6 R74
G1 X65.037 Y62.243 E0.01675
G1 X100.149 Y97.356 E1.55813
G1 X99.616 Y97.356 E0.01675
G1 X65.037 Y62.777 E1.53445
G1 X65.037 Y63.310 E0.01675
G1 X99.082 Y97.356 E1.51076
G1 X98.548 Y97.356 E0.01675
G1 X65.037 Y63.844 E1.48708
G1 X65.037 Y64.378 E0.01675
G1 X98.015 Y97.356 E1.46340
G1 X97.481 Y97.356 E0.01675
G1 X65.037 Y64.911 E1.43972
G1 X65.037 Y65.445 E0.01675
G1 X96.947 Y97.356 E1.41604
G1 X96.414 Y97.356 E0.01675
G1 X65.037 Y65.979 E1.39235
G1 X65.037 Y66.512 E0.01675
G1 X95.880 Y97.356 E1.36867
G1 X95.346 Y97.356 E0.01675
G1 X65.037 Y67.046 E1.34499
G1 X65.037 Y67.580 E0.01675
G1 X94.812 Y97.356 E1.32131
G1 X94.279 Y97.356 E0.01675
G1 X65.037 Y68.113 E1.29763
G1 X65.037 Y68.647 E0.01675
G1 X93.745 Y97.356 E1.27394
G1 X93.211 Y97.356 E0.01675
G1 X65.037 Y69.181 E1.25026
M73 P6 R73
G1 X65.037 Y69.715 E0.01675
G1 X92.678 Y97.356 E1.22658
G1 X92.144 Y97.356 E0.01675
G1 X65.037 Y70.248 E1.20290
G1 X65.037 Y70.782 E0.01675
